(Exported by FreeCAD)
(Post Processor: mach3_mach4_post)
(Output Time:2024-03-23 15:46:34.830892)
(begin preamble)
G17 G54 G40 G49 G80 G90
G21
(begin operation: Fixture)
(machine: mach3_4, mm/min)
G54
(finish operation: Fixture)
(begin operation: FREES_VLAK_16_mm001)
(machine: mach3_4, mm/min)
(FREES_VLAK_16_mm001)
M5
M6 T2 
G43 H2
M3 S30
(finish operation: FREES_VLAK_16_mm001)
(begin operation: MillFace)
(machine: mach3_4, mm/min)
(MillFace)
G0 Z11.000
G0 X0.000 Y0.000
G0 X-3.459 Y85.100
G0 X-3.459 Y85.100 Z9.000
G1 X-3.459 Y85.100 Z5.000 F120.000
G1 X-8.100 Y85.100 Z5.000 F300.000
G3 X-10.100 Y83.100 Z5.000 I0.000 J-2.000 F300.000
G1 X-10.100 Y78.459 Z5.000 F300.000
G1 X-3.459 Y85.100 Z5.000 F300.000
G1 X7.854 Y85.100 Z5.000 F300.000
G1 X-10.100 Y67.146 Z5.000 F300.000
G1 X-10.100 Y55.832 Z5.000 F300.000
G1 X19.168 Y85.100 Z5.000 F300.000
G1 X30.482 Y85.100 Z5.000 F300.000
G1 X-10.100 Y44.518 Z5.000 F300.000
G1 X-10.100 Y33.205 Z5.000 F300.000
G1 X41.795 Y85.100 Z5.000 F300.000
G1 X53.109 Y85.100 Z5.000 F300.000
G1 X-10.100 Y21.891 Z5.000 F300.000
G1 X-10.100 Y10.577 Z5.000 F300.000
G1 X64.423 Y85.100 Z5.000 F300.000
G1 X75.737 Y85.100 Z5.000 F300.000
G1 X-10.100 Y-0.737 Z5.000 F300.000
G1 X-10.100 Y-8.100 Z5.000 F300.000
G3 X-8.145 Y-10.096 Z5.000 I1.993 J-0.003 F300.000
G1 X87.050 Y85.100 Z5.000 F300.000
G1 X98.364 Y85.100 Z5.000 F300.000
G1 X3.164 Y-10.100 Z5.000 F300.000
G1 X14.478 Y-10.100 Z5.000 F300.000
G1 X109.678 Y85.100 Z5.000 F300.000
G1 X120.991 Y85.100 Z5.000 F300.000
G1 X25.791 Y-10.100 Z5.000 F300.000
G1 X37.105 Y-10.100 Z5.000 F300.000
G1 X132.305 Y85.100 Z5.000 F300.000
G1 X138.100 Y85.100 Z5.000 F300.000
G2 X140.100 Y83.100 Z5.000 I-0.000 J-2.000 F300.000
G1 X140.100 Y81.581 Z5.000 F300.000
G1 X48.419 Y-10.100 Z5.000 F300.000
G1 X59.732 Y-10.100 Z5.000 F300.000
G1 X140.100 Y70.268 Z5.000 F300.000
G1 X140.100 Y58.954 Z5.000 F300.000
G1 X71.046 Y-10.100 Z5.000 F300.000
G1 X82.360 Y-10.100 Z5.000 F300.000
G1 X140.100 Y47.640 Z5.000 F300.000
G1 X140.100 Y36.326 Z5.000 F300.000
G1 X93.674 Y-10.100 Z5.000 F300.000
G1 X104.987 Y-10.100 Z5.000 F300.000
G1 X140.100 Y25.013 Z5.000 F300.000
G1 X140.100 Y13.699 Z5.000 F300.000
G1 X116.301 Y-10.100 Z5.000 F300.000
G1 X127.615 Y-10.100 Z5.000 F300.000
G1 X140.100 Y2.385 Z5.000 F300.000
G1 X140.100 Y-8.100 Z5.000 F300.000
G2 X139.514 Y-9.514 Z5.000 I-2.000 J0.000 F300.000
G1 X139.514 Y-9.514 Z4.000 F120.000
G3 X140.100 Y-8.100 Z4.000 I-1.414 J1.414 F300.000
G1 X140.100 Y2.385 Z4.000 F300.000
G1 X127.615 Y-10.100 Z4.000 F300.000
G1 X116.301 Y-10.100 Z4.000 F300.000
G1 X140.100 Y13.699 Z4.000 F300.000
G1 X140.100 Y25.013 Z4.000 F300.000
G1 X104.987 Y-10.100 Z4.000 F300.000
G1 X93.674 Y-10.100 Z4.000 F300.000
G1 X140.100 Y36.326 Z4.000 F300.000
G1 X140.100 Y47.640 Z4.000 F300.000
G1 X82.360 Y-10.100 Z4.000 F300.000
G1 X71.046 Y-10.100 Z4.000 F300.000
G1 X140.100 Y58.954 Z4.000 F300.000
G1 X140.100 Y70.268 Z4.000 F300.000
G1 X59.732 Y-10.100 Z4.000 F300.000
G1 X48.419 Y-10.100 Z4.000 F300.000
G1 X140.100 Y81.581 Z4.000 F300.000
G1 X140.100 Y83.100 Z4.000 F300.000
G3 X138.100 Y85.100 Z4.000 I-2.000 J-0.000 F300.000
G1 X132.305 Y85.100 Z4.000 F300.000
G1 X37.105 Y-10.100 Z4.000 F300.000
G1 X25.791 Y-10.100 Z4.000 F300.000
G1 X120.991 Y85.100 Z4.000 F300.000
G1 X109.678 Y85.100 Z4.000 F300.000
G1 X14.478 Y-10.100 Z4.000 F300.000
G1 X3.164 Y-10.100 Z4.000 F300.000
G1 X98.364 Y85.100 Z4.000 F300.000
G1 X87.050 Y85.100 Z4.000 F300.000
G1 X-8.145 Y-10.096 Z4.000 F300.000
G2 X-10.100 Y-8.100 Z4.000 I0.038 J1.993 F300.000
G1 X-10.100 Y-0.737 Z4.000 F300.000
G1 X75.737 Y85.100 Z4.000 F300.000
G1 X64.423 Y85.100 Z4.000 F300.000
G1 X-10.100 Y10.577 Z4.000 F300.000
G1 X-10.100 Y21.891 Z4.000 F300.000
G1 X53.109 Y85.100 Z4.000 F300.000
G1 X41.795 Y85.100 Z4.000 F300.000
G1 X-10.100 Y33.205 Z4.000 F300.000
G1 X-10.100 Y44.518 Z4.000 F300.000
G1 X30.482 Y85.100 Z4.000 F300.000
G1 X19.168 Y85.100 Z4.000 F300.000
G1 X-10.100 Y55.832 Z4.000 F300.000
G1 X-10.100 Y67.146 Z4.000 F300.000
G1 X7.854 Y85.100 Z4.000 F300.000
G1 X-3.459 Y85.100 Z4.000 F300.000
G1 X-10.100 Y78.459 Z4.000 F300.000
G1 X-10.100 Y83.100 Z4.000 F300.000
G2 X-8.100 Y85.100 Z4.000 I2.000 J-0.000 F300.000
G1 X-3.459 Y85.100 Z4.000 F300.000
G1 X-3.459 Y85.100 Z3.000 F120.000
G1 X-8.100 Y85.100 Z3.000 F300.000
G3 X-10.100 Y83.100 Z3.000 I0.000 J-2.000 F300.000
G1 X-10.100 Y78.459 Z3.000 F300.000
G1 X-3.459 Y85.100 Z3.000 F300.000
G1 X7.854 Y85.100 Z3.000 F300.000
G1 X-10.100 Y67.146 Z3.000 F300.000
G1 X-10.100 Y55.832 Z3.000 F300.000
G1 X19.168 Y85.100 Z3.000 F300.000
G1 X30.482 Y85.100 Z3.000 F300.000
G1 X-10.100 Y44.518 Z3.000 F300.000
G1 X-10.100 Y33.205 Z3.000 F300.000
G1 X41.795 Y85.100 Z3.000 F300.000
G1 X53.109 Y85.100 Z3.000 F300.000
G1 X-10.100 Y21.891 Z3.000 F300.000
G1 X-10.100 Y10.577 Z3.000 F300.000
G1 X64.423 Y85.100 Z3.000 F300.000
G1 X75.737 Y85.100 Z3.000 F300.000
G1 X-10.100 Y-0.737 Z3.000 F300.000
G1 X-10.100 Y-8.100 Z3.000 F300.000
G3 X-8.145 Y-10.096 Z3.000 I1.993 J-0.003 F300.000
G1 X87.050 Y85.100 Z3.000 F300.000
G1 X98.364 Y85.100 Z3.000 F300.000
G1 X3.164 Y-10.100 Z3.000 F300.000
G1 X14.478 Y-10.100 Z3.000 F300.000
G1 X109.678 Y85.100 Z3.000 F300.000
G1 X120.991 Y85.100 Z3.000 F300.000
G1 X25.791 Y-10.100 Z3.000 F300.000
G1 X37.105 Y-10.100 Z3.000 F300.000
G1 X132.305 Y85.100 Z3.000 F300.000
G1 X138.100 Y85.100 Z3.000 F300.000
G2 X140.100 Y83.100 Z3.000 I-0.000 J-2.000 F300.000
G1 X140.100 Y81.581 Z3.000 F300.000
G1 X48.419 Y-10.100 Z3.000 F300.000
G1 X59.732 Y-10.100 Z3.000 F300.000
G1 X140.100 Y70.268 Z3.000 F300.000
G1 X140.100 Y58.954 Z3.000 F300.000
G1 X71.046 Y-10.100 Z3.000 F300.000
G1 X82.360 Y-10.100 Z3.000 F300.000
G1 X140.100 Y47.640 Z3.000 F300.000
G1 X140.100 Y36.326 Z3.000 F300.000
G1 X93.674 Y-10.100 Z3.000 F300.000
G1 X104.987 Y-10.100 Z3.000 F300.000
G1 X140.100 Y25.013 Z3.000 F300.000
G1 X140.100 Y13.699 Z3.000 F300.000
G1 X116.301 Y-10.100 Z3.000 F300.000
G1 X127.615 Y-10.100 Z3.000 F300.000
G1 X140.100 Y2.385 Z3.000 F300.000
G1 X140.100 Y-8.100 Z3.000 F300.000
G2 X139.514 Y-9.514 Z3.000 I-2.000 J0.000 F300.000
G1 X139.514 Y-9.514 Z2.000 F120.000
G3 X140.100 Y-8.100 Z2.000 I-1.414 J1.414 F300.000
G1 X140.100 Y2.385 Z2.000 F300.000
G1 X127.615 Y-10.100 Z2.000 F300.000
G1 X116.301 Y-10.100 Z2.000 F300.000
G1 X140.100 Y13.699 Z2.000 F300.000
G1 X140.100 Y25.013 Z2.000 F300.000
G1 X104.987 Y-10.100 Z2.000 F300.000
G1 X93.674 Y-10.100 Z2.000 F300.000
G1 X140.100 Y36.326 Z2.000 F300.000
G1 X140.100 Y47.640 Z2.000 F300.000
G1 X82.360 Y-10.100 Z2.000 F300.000
G1 X71.046 Y-10.100 Z2.000 F300.000
G1 X140.100 Y58.954 Z2.000 F300.000
G1 X140.100 Y70.268 Z2.000 F300.000
G1 X59.732 Y-10.100 Z2.000 F300.000
G1 X48.419 Y-10.100 Z2.000 F300.000
G1 X140.100 Y81.581 Z2.000 F300.000
G1 X140.100 Y83.100 Z2.000 F300.000
G3 X138.100 Y85.100 Z2.000 I-2.000 J-0.000 F300.000
G1 X132.305 Y85.100 Z2.000 F300.000
G1 X37.105 Y-10.100 Z2.000 F300.000
G1 X25.791 Y-10.100 Z2.000 F300.000
G1 X120.991 Y85.100 Z2.000 F300.000
G1 X109.678 Y85.100 Z2.000 F300.000
G1 X14.478 Y-10.100 Z2.000 F300.000
G1 X3.164 Y-10.100 Z2.000 F300.000
G1 X98.364 Y85.100 Z2.000 F300.000
G1 X87.050 Y85.100 Z2.000 F300.000
G1 X-8.145 Y-10.096 Z2.000 F300.000
G2 X-10.100 Y-8.100 Z2.000 I0.038 J1.993 F300.000
G1 X-10.100 Y-0.737 Z2.000 F300.000
G1 X75.737 Y85.100 Z2.000 F300.000
G1 X64.423 Y85.100 Z2.000 F300.000
G1 X-10.100 Y10.577 Z2.000 F300.000
G1 X-10.100 Y21.891 Z2.000 F300.000
G1 X53.109 Y85.100 Z2.000 F300.000
G1 X41.795 Y85.100 Z2.000 F300.000
G1 X-10.100 Y33.205 Z2.000 F300.000
G1 X-10.100 Y44.518 Z2.000 F300.000
G1 X30.482 Y85.100 Z2.000 F300.000
G1 X19.168 Y85.100 Z2.000 F300.000
G1 X-10.100 Y55.832 Z2.000 F300.000
G1 X-10.100 Y67.146 Z2.000 F300.000
G1 X7.854 Y85.100 Z2.000 F300.000
G1 X-3.459 Y85.100 Z2.000 F300.000
G1 X-10.100 Y78.459 Z2.000 F300.000
G1 X-10.100 Y83.100 Z2.000 F300.000
G2 X-8.100 Y85.100 Z2.000 I2.000 J-0.000 F300.000
G1 X-3.459 Y85.100 Z2.000 F300.000
G1 X-3.459 Y85.100 Z1.000 F120.000
G1 X-8.100 Y85.100 Z1.000 F300.000
G3 X-10.100 Y83.100 Z1.000 I0.000 J-2.000 F300.000
G1 X-10.100 Y78.459 Z1.000 F300.000
G1 X-3.459 Y85.100 Z1.000 F300.000
G1 X7.854 Y85.100 Z1.000 F300.000
G1 X-10.100 Y67.146 Z1.000 F300.000
G1 X-10.100 Y55.832 Z1.000 F300.000
G1 X19.168 Y85.100 Z1.000 F300.000
G1 X30.482 Y85.100 Z1.000 F300.000
G1 X-10.100 Y44.518 Z1.000 F300.000
G1 X-10.100 Y33.205 Z1.000 F300.000
G1 X41.795 Y85.100 Z1.000 F300.000
G1 X53.109 Y85.100 Z1.000 F300.000
G1 X-10.100 Y21.891 Z1.000 F300.000
G1 X-10.100 Y10.577 Z1.000 F300.000
G1 X64.423 Y85.100 Z1.000 F300.000
G1 X75.737 Y85.100 Z1.000 F300.000
G1 X-10.100 Y-0.737 Z1.000 F300.000
G1 X-10.100 Y-8.100 Z1.000 F300.000
G3 X-8.145 Y-10.096 Z1.000 I1.993 J-0.003 F300.000
G1 X87.050 Y85.100 Z1.000 F300.000
G1 X98.364 Y85.100 Z1.000 F300.000
G1 X3.164 Y-10.100 Z1.000 F300.000
G1 X14.478 Y-10.100 Z1.000 F300.000
G1 X109.678 Y85.100 Z1.000 F300.000
G1 X120.991 Y85.100 Z1.000 F300.000
G1 X25.791 Y-10.100 Z1.000 F300.000
G1 X37.105 Y-10.100 Z1.000 F300.000
G1 X132.305 Y85.100 Z1.000 F300.000
G1 X138.100 Y85.100 Z1.000 F300.000
G2 X140.100 Y83.100 Z1.000 I-0.000 J-2.000 F300.000
G1 X140.100 Y81.581 Z1.000 F300.000
G1 X48.419 Y-10.100 Z1.000 F300.000
G1 X59.732 Y-10.100 Z1.000 F300.000
G1 X140.100 Y70.268 Z1.000 F300.000
G1 X140.100 Y58.954 Z1.000 F300.000
G1 X71.046 Y-10.100 Z1.000 F300.000
G1 X82.360 Y-10.100 Z1.000 F300.000
G1 X140.100 Y47.640 Z1.000 F300.000
G1 X140.100 Y36.326 Z1.000 F300.000
G1 X93.674 Y-10.100 Z1.000 F300.000
G1 X104.987 Y-10.100 Z1.000 F300.000
G1 X140.100 Y25.013 Z1.000 F300.000
G1 X140.100 Y13.699 Z1.000 F300.000
G1 X116.301 Y-10.100 Z1.000 F300.000
G1 X127.615 Y-10.100 Z1.000 F300.000
G1 X140.100 Y2.385 Z1.000 F300.000
G1 X140.100 Y-8.100 Z1.000 F300.000
G2 X139.514 Y-9.514 Z1.000 I-2.000 J0.000 F300.000
G1 X139.514 Y-9.514 Z0.500 F120.000
G3 X140.100 Y-8.100 Z0.500 I-1.414 J1.414 F300.000
G1 X140.100 Y2.385 Z0.500 F300.000
G1 X127.615 Y-10.100 Z0.500 F300.000
G1 X116.301 Y-10.100 Z0.500 F300.000
G1 X140.100 Y13.699 Z0.500 F300.000
G1 X140.100 Y25.013 Z0.500 F300.000
G1 X104.987 Y-10.100 Z0.500 F300.000
G1 X93.674 Y-10.100 Z0.500 F300.000
G1 X140.100 Y36.326 Z0.500 F300.000
G1 X140.100 Y47.640 Z0.500 F300.000
G1 X82.360 Y-10.100 Z0.500 F300.000
G1 X71.046 Y-10.100 Z0.500 F300.000
G1 X140.100 Y58.954 Z0.500 F300.000
G1 X140.100 Y70.268 Z0.500 F300.000
G1 X59.732 Y-10.100 Z0.500 F300.000
G1 X48.419 Y-10.100 Z0.500 F300.000
G1 X140.100 Y81.581 Z0.500 F300.000
G1 X140.100 Y83.100 Z0.500 F300.000
G3 X138.100 Y85.100 Z0.500 I-2.000 J-0.000 F300.000
G1 X132.305 Y85.100 Z0.500 F300.000
G1 X37.105 Y-10.100 Z0.500 F300.000
G1 X25.791 Y-10.100 Z0.500 F300.000
G1 X120.991 Y85.100 Z0.500 F300.000
G1 X109.678 Y85.100 Z0.500 F300.000
G1 X14.478 Y-10.100 Z0.500 F300.000
G1 X3.164 Y-10.100 Z0.500 F300.000
G1 X98.364 Y85.100 Z0.500 F300.000
G1 X87.050 Y85.100 Z0.500 F300.000
G1 X-8.145 Y-10.096 Z0.500 F300.000
G2 X-10.100 Y-8.100 Z0.500 I0.038 J1.993 F300.000
G1 X-10.100 Y-0.737 Z0.500 F300.000
G1 X75.737 Y85.100 Z0.500 F300.000
G1 X64.423 Y85.100 Z0.500 F300.000
G1 X-10.100 Y10.577 Z0.500 F300.000
G1 X-10.100 Y21.891 Z0.500 F300.000
G1 X53.109 Y85.100 Z0.500 F300.000
G1 X41.795 Y85.100 Z0.500 F300.000
G1 X-10.100 Y33.205 Z0.500 F300.000
G1 X-10.100 Y44.518 Z0.500 F300.000
G1 X30.482 Y85.100 Z0.500 F300.000
G1 X19.168 Y85.100 Z0.500 F300.000
G1 X-10.100 Y55.832 Z0.500 F300.000
G1 X-10.100 Y67.146 Z0.500 F300.000
G1 X7.854 Y85.100 Z0.500 F300.000
G1 X-3.459 Y85.100 Z0.500 F300.000
G1 X-10.100 Y78.459 Z0.500 F300.000
G1 X-10.100 Y83.100 Z0.500 F300.000
G2 X-8.100 Y85.100 Z0.500 I2.000 J-0.000 F300.000
G1 X-3.459 Y85.100 Z0.500 F300.000
G0 Z11.000
G0 Z11.000
(finish operation: MillFace)
(begin postamble)
M05
G17 G54 G90 G80 G40
M2
