(Exported by FreeCAD)
(Post Processor: mach3_mach4_post)
(Output Time:2024-04-10 21:15:04.160647)
(begin preamble)
G17 G54 G40 G49 G80 G90
G21
(begin operation: Fixture)
(machine: mach3_4, mm/min)
G54
(finish operation: Fixture)
(begin operation: FREES_VLAK_16_mm001)
(machine: mach3_4, mm/min)
(FREES_VLAK_16_mm001)
M5
M6 T6 
G43 H6
(finish operation: FREES_VLAK_16_mm001)
(begin operation: MillFace)
(machine: mach3_4, mm/min)
(MillFace)
G0 Z5.000
G0 X0.000 Y0.000
G0 X0.100 Y-0.100
G0 X0.100 Y-0.100 Z3.000
G1 X0.100 Y-0.100 Z1.000
G1 X0.100 Y11.214 Z1.000
G1 X-11.214 Y-0.100 Z1.000
G1 X-22.527 Y-0.100 Z1.000
G1 X0.100 Y22.527 Z1.000
G1 X0.100 Y33.841 Z1.000
G1 X-33.841 Y-0.100 Z1.000
G1 X-45.155 Y-0.100 Z1.000
G1 X0.100 Y45.155 Z1.000
G1 X0.100 Y56.469 Z1.000
G1 X-56.469 Y-0.100 Z1.000
G1 X-61.100 Y-0.100 Z1.000
G1 X-61.100 Y6.582 Z1.000
G1 X0.100 Y67.782 Z1.000
G1 X0.100 Y79.096 Z1.000
G1 X-61.100 Y17.896 Z1.000
G1 X-61.100 Y29.210 Z1.000
G1 X0.100 Y90.410 Z1.000
G1 X0.100 Y101.723 Z1.000
G1 X-61.100 Y40.523 Z1.000
G1 X-61.100 Y51.837 Z1.000
G1 X0.100 Y113.037 Z1.000
G1 X0.100 Y124.351 Z1.000
G1 X-61.100 Y63.151 Z1.000
G1 X-61.100 Y74.465 Z1.000
G1 X0.100 Y135.665 Z1.000
G1 X0.100 Y146.978 Z1.000
G1 X-61.100 Y85.778 Z1.000
G1 X-61.100 Y97.092 Z1.000
G1 X0.100 Y158.292 Z1.000
G1 X0.100 Y169.606 Z1.000
G1 X-61.100 Y108.406 Z1.000
G1 X-61.100 Y119.719 Z1.000
G1 X0.100 Y180.919 Z1.000
G1 X0.100 Y192.233 Z1.000
G1 X-61.100 Y131.033 Z1.000
G1 X-61.100 Y142.347 Z1.000
G1 X0.100 Y203.547 Z1.000
G1 X0.100 Y214.860 Z1.000
G1 X-61.100 Y153.660 Z1.000
G1 X-61.100 Y164.974 Z1.000
G1 X0.100 Y226.174 Z1.000
G1 X0.100 Y237.488 Z1.000
G1 X-61.100 Y176.288 Z1.000
G1 X-61.100 Y187.602 Z1.000
G1 X0.100 Y248.802 Z1.000
G1 X0.100 Y260.115 Z1.000
G1 X-61.100 Y198.915 Z1.000
G1 X-61.100 Y210.229 Z1.000
G1 X0.100 Y271.429 Z1.000
G1 X0.100 Y282.743 Z1.000
G1 X-61.100 Y221.543 Z1.000
G1 X-61.100 Y232.856 Z1.000
G1 X0.100 Y294.056 Z1.000
G1 X0.100 Y305.370 Z1.000
G1 X-61.100 Y244.170 Z1.000
G1 X-61.100 Y255.484 Z1.000
G1 X0.100 Y316.684 Z1.000
G1 X0.100 Y327.998 Z1.000
G1 X-61.100 Y266.798 Z1.000
G1 X-61.100 Y278.111 Z1.000
G1 X0.100 Y339.311 Z1.000
G1 X0.100 Y350.625 Z1.000
G1 X-61.100 Y289.425 Z1.000
G1 X-61.100 Y300.739 Z1.000
G1 X0.100 Y361.939 Z1.000
G1 X0.100 Y373.252 Z1.000
G1 X-61.100 Y312.052 Z1.000
G1 X-61.100 Y323.366 Z1.000
G1 X0.100 Y384.566 Z1.000
G1 X0.100 Y395.880 Z1.000
G1 X-61.100 Y334.680 Z1.000
G1 X-61.100 Y345.994 Z1.000
G1 X0.100 Y407.194 Z1.000
G1 X0.100 Y410.100 Z1.000
G1 X-8.307 Y410.100 Z1.000
G1 X-61.100 Y357.307 Z1.000
G1 X-61.100 Y368.621 Z1.000
G1 X-19.621 Y410.100 Z1.000
G1 X-30.935 Y410.100 Z1.000
G1 X-61.100 Y379.935 Z1.000
G1 X-61.100 Y391.248 Z1.000
G1 X-42.248 Y410.100 Z1.000
G1 X-53.562 Y410.100 Z1.000
G1 X-61.100 Y410.100 Z1.000
G1 X-61.100 Y402.562 Z1.000
G1 X-53.562 Y410.100 Z1.000
G1 X-53.562 Y410.100 Z0.500
G1 X-61.100 Y402.562 Z0.500
G1 X-61.100 Y410.100 Z0.500
G1 X-53.562 Y410.100 Z0.500
G1 X-42.248 Y410.100 Z0.500
G1 X-61.100 Y391.248 Z0.500
G1 X-61.100 Y379.935 Z0.500
G1 X-30.935 Y410.100 Z0.500
G1 X-19.621 Y410.100 Z0.500
G1 X-61.100 Y368.621 Z0.500
G1 X-61.100 Y357.307 Z0.500
G1 X-8.307 Y410.100 Z0.500
G1 X0.100 Y410.100 Z0.500
G1 X0.100 Y407.194 Z0.500
G1 X-61.100 Y345.994 Z0.500
G1 X-61.100 Y334.680 Z0.500
G1 X0.100 Y395.880 Z0.500
G1 X0.100 Y384.566 Z0.500
G1 X-61.100 Y323.366 Z0.500
G1 X-61.100 Y312.052 Z0.500
G1 X0.100 Y373.252 Z0.500
G1 X0.100 Y361.939 Z0.500
G1 X-61.100 Y300.739 Z0.500
G1 X-61.100 Y289.425 Z0.500
G1 X0.100 Y350.625 Z0.500
G1 X0.100 Y339.311 Z0.500
G1 X-61.100 Y278.111 Z0.500
G1 X-61.100 Y266.798 Z0.500
G1 X0.100 Y327.998 Z0.500
G1 X0.100 Y316.684 Z0.500
G1 X-61.100 Y255.484 Z0.500
G1 X-61.100 Y244.170 Z0.500
G1 X0.100 Y305.370 Z0.500
G1 X0.100 Y294.056 Z0.500
G1 X-61.100 Y232.856 Z0.500
G1 X-61.100 Y221.543 Z0.500
G1 X0.100 Y282.743 Z0.500
G1 X0.100 Y271.429 Z0.500
G1 X-61.100 Y210.229 Z0.500
G1 X-61.100 Y198.915 Z0.500
G1 X0.100 Y260.115 Z0.500
G1 X0.100 Y248.802 Z0.500
G1 X-61.100 Y187.602 Z0.500
G1 X-61.100 Y176.288 Z0.500
G1 X0.100 Y237.488 Z0.500
G1 X0.100 Y226.174 Z0.500
G1 X-61.100 Y164.974 Z0.500
G1 X-61.100 Y153.660 Z0.500
G1 X0.100 Y214.860 Z0.500
G1 X0.100 Y203.547 Z0.500
G1 X-61.100 Y142.347 Z0.500
G1 X-61.100 Y131.033 Z0.500
G1 X0.100 Y192.233 Z0.500
G1 X0.100 Y180.919 Z0.500
G1 X-61.100 Y119.719 Z0.500
G1 X-61.100 Y108.406 Z0.500
G1 X0.100 Y169.606 Z0.500
G1 X0.100 Y158.292 Z0.500
G1 X-61.100 Y97.092 Z0.500
G1 X-61.100 Y85.778 Z0.500
G1 X0.100 Y146.978 Z0.500
G1 X0.100 Y135.665 Z0.500
G1 X-61.100 Y74.465 Z0.500
G1 X-61.100 Y63.151 Z0.500
G1 X0.100 Y124.351 Z0.500
G1 X0.100 Y113.037 Z0.500
G1 X-61.100 Y51.837 Z0.500
G1 X-61.100 Y40.523 Z0.500
G1 X0.100 Y101.723 Z0.500
G1 X0.100 Y90.410 Z0.500
G1 X-61.100 Y29.210 Z0.500
G1 X-61.100 Y17.896 Z0.500
G1 X0.100 Y79.096 Z0.500
G1 X0.100 Y67.782 Z0.500
G1 X-61.100 Y6.582 Z0.500
G1 X-61.100 Y-0.100 Z0.500
G1 X-56.469 Y-0.100 Z0.500
G1 X0.100 Y56.469 Z0.500
G1 X0.100 Y45.155 Z0.500
G1 X-45.155 Y-0.100 Z0.500
G1 X-33.841 Y-0.100 Z0.500
G1 X0.100 Y33.841 Z0.500
G1 X0.100 Y22.527 Z0.500
G1 X-22.527 Y-0.100 Z0.500
G1 X-11.214 Y-0.100 Z0.500
G1 X0.100 Y11.214 Z0.500
G1 X0.100 Y-0.100 Z0.500
G0 Z5.000
G0 Z5.000
(finish operation: MillFace)
(begin operation: FREES_5mm001)
(machine: mach3_4, mm/min)
(FREES_5mm001)
M5
M6 T5 
G43 H5
(finish operation: FREES_5mm001)
(begin operation: Profile)
(machine: mach3_4, mm/min)
(Profile)
(Compensated Tool Path. Diameter: 5.0)
G0 Z5.000
G0 X0.000 Y0.000
G0 Y-2.500
G0 Y-2.500 Z3.000
G1 X0.000 Y-2.500 Z-1.000
G1 X-61.000 Y-2.500 Z-1.000
G2 X-63.500 Y0.000 Z-1.000 I0.000 J2.500
G1 X-63.500 Y410.000 Z-1.000
G2 X-61.000 Y412.500 Z-1.000 I2.500 J-0.000
G1 X0.000 Y412.500 Z-1.000
G2 X2.500 Y410.000 Z-1.000 I-0.000 J-2.500
G1 X2.500 Y0.000 Z-1.000
G2 X0.000 Y-2.500 Z-1.000 I-2.500 J0.000
G1 X0.000 Y-2.500 Z-2.000
G1 X-61.000 Y-2.500 Z-2.000
G2 X-63.500 Y0.000 Z-2.000 I0.000 J2.500
G1 X-63.500 Y410.000 Z-2.000
G2 X-61.000 Y412.500 Z-2.000 I2.500 J-0.000
G1 X0.000 Y412.500 Z-2.000
G2 X2.500 Y410.000 Z-2.000 I-0.000 J-2.500
G1 X2.500 Y0.000 Z-2.000
G2 X0.000 Y-2.500 Z-2.000 I-2.500 J0.000
G1 X0.000 Y-2.500 Z-3.000
G1 X-61.000 Y-2.500 Z-3.000
G2 X-63.500 Y0.000 Z-3.000 I0.000 J2.500
G1 X-63.500 Y410.000 Z-3.000
G2 X-61.000 Y412.500 Z-3.000 I2.500 J-0.000
G1 X0.000 Y412.500 Z-3.000
G2 X2.500 Y410.000 Z-3.000 I-0.000 J-2.500
G1 X2.500 Y0.000 Z-3.000
G2 X0.000 Y-2.500 Z-3.000 I-2.500 J0.000
G1 X0.000 Y-2.500 Z-4.000
G1 X-61.000 Y-2.500 Z-4.000
G2 X-63.500 Y0.000 Z-4.000 I0.000 J2.500
G1 X-63.500 Y410.000 Z-4.000
G2 X-61.000 Y412.500 Z-4.000 I2.500 J-0.000
G1 X0.000 Y412.500 Z-4.000
G2 X2.500 Y410.000 Z-4.000 I-0.000 J-2.500
G1 X2.500 Y0.000 Z-4.000
G2 X0.000 Y-2.500 Z-4.000 I-2.500 J0.000
G1 X0.000 Y-2.500 Z-5.000
G1 X-61.000 Y-2.500 Z-5.000
G2 X-63.500 Y0.000 Z-5.000 I0.000 J2.500
G1 X-63.500 Y410.000 Z-5.000
G2 X-61.000 Y412.500 Z-5.000 I2.500 J-0.000
G1 X0.000 Y412.500 Z-5.000
G2 X2.500 Y410.000 Z-5.000 I-0.000 J-2.500
G1 X2.500 Y0.000 Z-5.000
G2 X0.000 Y-2.500 Z-5.000 I-2.500 J0.000
G1 X0.000 Y-2.500 Z-6.000
G1 X-61.000 Y-2.500 Z-6.000
G2 X-63.500 Y0.000 Z-6.000 I0.000 J2.500
G1 X-63.500 Y410.000 Z-6.000
G2 X-61.000 Y412.500 Z-6.000 I2.500 J-0.000
G1 X0.000 Y412.500 Z-6.000
G2 X2.500 Y410.000 Z-6.000 I-0.000 J-2.500
G1 X2.500 Y0.000 Z-6.000
G2 X0.000 Y-2.500 Z-6.000 I-2.500 J0.000
G1 X0.000 Y-2.500 Z-7.000
G1 X-61.000 Y-2.500 Z-7.000
G2 X-63.500 Y0.000 Z-7.000 I0.000 J2.500
G1 X-63.500 Y410.000 Z-7.000
G2 X-61.000 Y412.500 Z-7.000 I2.500 J-0.000
G1 X0.000 Y412.500 Z-7.000
G2 X2.500 Y410.000 Z-7.000 I-0.000 J-2.500
G1 X2.500 Y0.000 Z-7.000
G2 X0.000 Y-2.500 Z-7.000 I-2.500 J0.000
G1 X0.000 Y-2.500 Z-8.000
G1 X-61.000 Y-2.500 Z-8.000
G2 X-63.500 Y0.000 Z-8.000 I0.000 J2.500
G1 X-63.500 Y410.000 Z-8.000
G2 X-61.000 Y412.500 Z-8.000 I2.500 J-0.000
G1 X0.000 Y412.500 Z-8.000
G2 X2.500 Y410.000 Z-8.000 I-0.000 J-2.500
G1 X2.500 Y0.000 Z-8.000
G2 X0.000 Y-2.500 Z-8.000 I-2.500 J0.000
G1 X0.000 Y-2.500 Z-9.000
G1 X-61.000 Y-2.500 Z-9.000
G2 X-63.500 Y0.000 Z-9.000 I0.000 J2.500
G1 X-63.500 Y410.000 Z-9.000
G2 X-61.000 Y412.500 Z-9.000 I2.500 J-0.000
G1 X0.000 Y412.500 Z-9.000
G2 X2.500 Y410.000 Z-9.000 I-0.000 J-2.500
G1 X2.500 Y0.000 Z-9.000
G2 X0.000 Y-2.500 Z-9.000 I-2.500 J0.000
G1 X0.000 Y-2.500 Z-10.000
G1 X-61.000 Y-2.500 Z-10.000
G2 X-63.500 Y0.000 Z-10.000 I0.000 J2.500
G1 X-63.500 Y410.000 Z-10.000
G2 X-61.000 Y412.500 Z-10.000 I2.500 J-0.000
G1 X0.000 Y412.500 Z-10.000
G2 X2.500 Y410.000 Z-10.000 I-0.000 J-2.500
G1 X2.500 Y0.000 Z-10.000
G2 X0.000 Y-2.500 Z-10.000 I-2.500 J0.000
G1 X0.000 Y-2.500 Z-11.000
G1 X-61.000 Y-2.500 Z-11.000
G2 X-63.500 Y0.000 Z-11.000 I0.000 J2.500
G1 X-63.500 Y410.000 Z-11.000
G2 X-61.000 Y412.500 Z-11.000 I2.500 J-0.000
G1 X0.000 Y412.500 Z-11.000
G2 X2.500 Y410.000 Z-11.000 I-0.000 J-2.500
G1 X2.500 Y0.000 Z-11.000
G2 X0.000 Y-2.500 Z-11.000 I-2.500 J0.000
G1 X0.000 Y-2.500 Z-11.500
G1 X-61.000 Y-2.500 Z-11.500
G2 X-63.500 Y0.000 Z-11.500 I0.000 J2.500
G1 X-63.500 Y410.000 Z-11.500
G2 X-61.000 Y412.500 Z-11.500 I2.500 J-0.000
G1 X0.000 Y412.500 Z-11.500
G2 X2.500 Y410.000 Z-11.500 I-0.000 J-2.500
G1 X2.500 Y0.000 Z-11.500
G2 X0.000 Y-2.500 Z-11.500 I-2.500 J0.000
G0 Z5.000
G0 Z5.000
(finish operation: Profile)
(begin operation: Pocket_Shape)
(machine: mach3_4, mm/min)
(Pocket_Shape)
G0 Z5.000
G0 X0.000 Y0.000
G0 X-52.500
G0 X-52.500 Z3.000
G1 X-52.500 Y0.000 Z-1.000
G1 X-52.500 Y410.000 Z-1.000
G1 X-55.000 Y410.000 Z-1.000
G1 X-55.000 Y0.000 Z-1.000
G1 X-57.500 Y0.000 Z-1.000
G1 X-57.500 Y410.000 Z-1.000
G1 X-60.000 Y410.000 Z-1.000
G1 X-60.000 Y0.000 Z-1.000
G2 X-60.991 Y0.009 Z-1.000 I-0.445 J5.669
G1 X-61.000 Y0.109 Z-1.000
G1 X-61.000 Y409.891 Z-1.000
G2 X-60.891 Y410.000 Z-1.000 I0.064 J0.045
G1 X-60.000 Y410.000 Z-1.000
G1 X-60.000 Y410.000 Z-2.000
G1 X-60.891 Y410.000 Z-2.000
G3 X-61.000 Y409.891 Z-2.000 I-0.045 J-0.064
G1 X-61.000 Y0.109 Z-2.000
G1 X-60.991 Y0.009 Z-2.000
G3 X-60.000 Y0.000 Z-2.000 I0.546 J5.660
G1 X-60.000 Y410.000 Z-2.000
G1 X-57.500 Y410.000 Z-2.000
G1 X-57.500 Y0.000 Z-2.000
G1 X-55.000 Y0.000 Z-2.000
G1 X-55.000 Y410.000 Z-2.000
G1 X-52.500 Y410.000 Z-2.000
G1 X-52.500 Y0.000 Z-2.000
G1 X-52.500 Y0.000 Z-2.500
G1 X-52.500 Y410.000 Z-2.500
G1 X-55.000 Y410.000 Z-2.500
G1 X-55.000 Y0.000 Z-2.500
G1 X-57.500 Y0.000 Z-2.500
G1 X-57.500 Y410.000 Z-2.500
G1 X-60.000 Y410.000 Z-2.500
G1 X-60.000 Y0.000 Z-2.500
G2 X-60.991 Y0.009 Z-2.500 I-0.445 J5.669
G1 X-61.000 Y0.109 Z-2.500
G1 X-61.000 Y409.891 Z-2.500
G2 X-60.891 Y410.000 Z-2.500 I0.064 J0.045
G1 X-60.000 Y410.000 Z-2.500
G1 X-60.000 Y410.000 Z-3.000
G1 X-60.891 Y410.000 Z-3.000
G3 X-61.000 Y409.891 Z-3.000 I-0.045 J-0.064
G1 X-61.000 Y0.109 Z-3.000
G1 X-60.991 Y0.009 Z-3.000
G3 X-60.000 Y0.000 Z-3.000 I0.546 J5.660
G1 X-60.000 Y410.000 Z-3.000
G1 X-57.500 Y410.000 Z-3.000
G1 X-57.500 Y0.000 Z-3.000
G1 X-55.000 Y0.000 Z-3.000
G1 X-55.000 Y410.000 Z-3.000
G1 X-52.500 Y410.000 Z-3.000
G1 X-52.500 Y0.000 Z-3.000
G0 Z5.000
G0 Z5.000
(finish operation: Pocket_Shape)
(begin operation: Pocket_Shape001)
(machine: mach3_4, mm/min)
(Pocket_Shape001)
G0 Z5.000
G0 X0.000 Y0.000
G0 X-6.250
G0 X-6.250 Z3.000
G1 X-6.250 Y0.000 Z-1.000
G1 X-7.000 Y0.000 Z-1.000
G1 X-7.000 Y410.000 Z-1.000
G1 X-6.250 Y410.000 Z-1.000
G1 X-6.250 Y0.000 Z-1.000
G1 X-6.250 Y0.000 Z-2.000
G1 X-7.000 Y0.000 Z-2.000
G1 X-7.000 Y410.000 Z-2.000
G1 X-6.250 Y410.000 Z-2.000
G1 X-6.250 Y0.000 Z-2.000
G1 X-6.250 Y0.000 Z-3.000
G1 X-7.000 Y0.000 Z-3.000
G1 X-7.000 Y410.000 Z-3.000
G1 X-6.250 Y410.000 Z-3.000
G1 X-6.250 Y0.000 Z-3.000
G1 X-6.250 Y0.000 Z-4.000
G1 X-7.000 Y0.000 Z-4.000
G1 X-7.000 Y410.000 Z-4.000
G1 X-6.250 Y410.000 Z-4.000
G1 X-6.250 Y0.000 Z-4.000
G1 X-6.250 Y0.000 Z-5.000
G1 X-7.000 Y0.000 Z-5.000
G1 X-7.000 Y410.000 Z-5.000
G1 X-6.250 Y410.000 Z-5.000
G1 X-6.250 Y0.000 Z-5.000
G1 X-6.250 Y0.000 Z-5.250
G1 X-7.000 Y0.000 Z-5.250
G1 X-7.000 Y410.000 Z-5.250
G1 X-6.250 Y410.000 Z-5.250
G1 X-6.250 Y0.000 Z-5.250
G1 X-6.250 Y0.000 Z-5.750
G1 X-7.000 Y0.000 Z-5.750
G1 X-7.000 Y410.000 Z-5.750
G1 X-6.250 Y410.000 Z-5.750
G1 X-6.250 Y0.000 Z-5.750
G0 Z5.000
G0 Z5.000
(finish operation: Pocket_Shape001)
(begin operation: FREES_2_mm001)
(machine: mach3_4, mm/min)
(FREES_2_mm001)
M5
M6 T3 
G43 H3
(finish operation: FREES_2_mm001)
(begin operation: Pocket_Shape002)
(machine: mach3_4, mm/min)
(Pocket_Shape002)
G0 Z5.000
G0 X0.000 Y0.000
G0 X-45.000
G0 X-45.000 Z3.000
G1 X-45.000 Y0.000 Z-1.000
G1 X-46.000 Y0.000 Z-1.000
G1 X-46.000 Y410.000 Z-1.000
G1 X-45.000 Y410.000 Z-1.000
G1 X-45.000 Y0.000 Z-1.000
G1 X-45.000 Y0.000 Z-2.000
G1 X-46.000 Y0.000 Z-2.000
G1 X-46.000 Y410.000 Z-2.000
G1 X-45.000 Y410.000 Z-2.000
G1 X-45.000 Y0.000 Z-2.000
G1 X-45.000 Y0.000 Z-3.000
G1 X-46.000 Y0.000 Z-3.000
G1 X-46.000 Y410.000 Z-3.000
G1 X-45.000 Y410.000 Z-3.000
G1 X-45.000 Y0.000 Z-3.000
G1 X-45.000 Y0.000 Z-4.000
G1 X-46.000 Y0.000 Z-4.000
G1 X-46.000 Y410.000 Z-4.000
G1 X-45.000 Y410.000 Z-4.000
G1 X-45.000 Y0.000 Z-4.000
G1 X-45.000 Y0.000 Z-5.000
G1 X-46.000 Y0.000 Z-5.000
G1 X-46.000 Y410.000 Z-5.000
G1 X-45.000 Y410.000 Z-5.000
G1 X-45.000 Y0.000 Z-5.000
G1 X-45.000 Y0.000 Z-5.250
G1 X-46.000 Y0.000 Z-5.250
G1 X-46.000 Y410.000 Z-5.250
G1 X-45.000 Y410.000 Z-5.250
G1 X-45.000 Y0.000 Z-5.250
G1 X-45.000 Y0.000 Z-5.750
G1 X-46.000 Y0.000 Z-5.750
G1 X-46.000 Y410.000 Z-5.750
G1 X-45.000 Y410.000 Z-5.750
G1 X-45.000 Y0.000 Z-5.750
G0 Z5.000
G0 Z5.000
(finish operation: Pocket_Shape002)
(begin operation: V_GROEF_FREES_22mm001)
(machine: mach3_4, mm/min)
(V_GROEF_FREES_22mm001)
M5
M6 T4 
G43 H4
(finish operation: V_GROEF_FREES_22mm001)
(begin operation: Engrave)
(machine: mach3_4, mm/min)
(Engrave)
G0 Z5.000
G0 Z5.000
G0 X0.000 Y0.000
G0 Z3.000
G1 X0.000 Y0.000 Z-1.500
G1 X-61.000 Y0.000 Z-1.500
G1 X-61.000 Y0.000 Z-3.000
G0 Z5.000
G0 X0.000 Y0.000
G0 Z3.000
G1 X0.000 Y0.000 Z-3.000
G1 X-61.000 Y0.000 Z-3.000
G1 X-61.000 Y0.000 Z-4.500
G0 Z5.000
G0 X0.000 Y0.000
G0 Z3.000
G1 X0.000 Y0.000 Z-4.500
G1 X-61.000 Y0.000 Z-4.500
G1 X-61.000 Y0.000 Z-6.000
G0 Z5.000
G0 X0.000 Y0.000
G0 Z3.000
G1 X0.000 Y0.000 Z-6.000
G1 X-61.000 Y0.000 Z-6.000
G1 X-61.000 Y0.000 Z-7.500
G0 Z5.000
G0 X0.000 Y0.000
G0 Z3.000
G1 X0.000 Y0.000 Z-7.500
G1 X-61.000 Y0.000 Z-7.500
G1 X-61.000 Y0.000 Z-9.000
G0 Z5.000
G0 X0.000 Y0.000
G0 Z3.000
G1 X0.000 Y0.000 Z-9.000
G1 X-61.000 Y0.000 Z-9.000
G1 X-61.000 Y0.000 Z-10.500
G0 Z5.000
G0 X0.000 Y0.000
G0 Z3.000
G1 X0.000 Y0.000 Z-10.500
G1 X-61.000 Y0.000 Z-10.500
G1 X-61.000 Y0.000 Z-11.500
G0 Z5.000
G0 X0.000 Y0.000
G0 Z3.000
G1 X0.000 Y0.000 Z-11.500
G1 X-61.000 Y0.000 Z-11.500
G0 Z5.000
G0 Z5.000
G0 Z5.000
G0 X0.000 Y75.000
G0 Z3.000
G1 X0.000 Y75.000 Z-1.500
G1 X-61.000 Y75.000 Z-1.500
G1 X-61.000 Y75.000 Z-3.000
G0 Z5.000
G0 X0.000 Y75.000
G0 Z3.000
G1 X0.000 Y75.000 Z-3.000
G1 X-61.000 Y75.000 Z-3.000
G1 X-61.000 Y75.000 Z-4.500
G0 Z5.000
G0 X0.000 Y75.000
G0 Z3.000
G1 X0.000 Y75.000 Z-4.500
G1 X-61.000 Y75.000 Z-4.500
G1 X-61.000 Y75.000 Z-6.000
G0 Z5.000
G0 X0.000 Y75.000
G0 Z3.000
G1 X0.000 Y75.000 Z-6.000
G1 X-61.000 Y75.000 Z-6.000
G1 X-61.000 Y75.000 Z-7.500
G0 Z5.000
G0 X0.000 Y75.000
G0 Z3.000
G1 X0.000 Y75.000 Z-7.500
G1 X-61.000 Y75.000 Z-7.500
G1 X-61.000 Y75.000 Z-9.000
G0 Z5.000
G0 X0.000 Y75.000
G0 Z3.000
G1 X0.000 Y75.000 Z-9.000
G1 X-61.000 Y75.000 Z-9.000
G1 X-61.000 Y75.000 Z-10.500
G0 Z5.000
G0 X0.000 Y75.000
G0 Z3.000
G1 X0.000 Y75.000 Z-10.500
G1 X-61.000 Y75.000 Z-10.500
G1 X-61.000 Y75.000 Z-11.500
G0 Z5.000
G0 X0.000 Y75.000
G0 Z3.000
G1 X0.000 Y75.000 Z-11.500
G1 X-61.000 Y75.000 Z-11.500
G0 Z5.000
G0 Z5.000
G0 Z5.000
G0 X0.000 Y205.000
G0 Z3.000
G1 X0.000 Y205.000 Z-1.500
G1 X-61.000 Y205.000 Z-1.500
G1 X-61.000 Y205.000 Z-3.000
G0 Z5.000
G0 X0.000 Y205.000
G0 Z3.000
G1 X0.000 Y205.000 Z-3.000
G1 X-61.000 Y205.000 Z-3.000
G1 X-61.000 Y205.000 Z-4.500
G0 Z5.000
G0 X0.000 Y205.000
G0 Z3.000
G1 X0.000 Y205.000 Z-4.500
G1 X-61.000 Y205.000 Z-4.500
G1 X-61.000 Y205.000 Z-6.000
G0 Z5.000
G0 X0.000 Y205.000
G0 Z3.000
G1 X0.000 Y205.000 Z-6.000
G1 X-61.000 Y205.000 Z-6.000
G1 X-61.000 Y205.000 Z-7.500
G0 Z5.000
G0 X0.000 Y205.000
G0 Z3.000
G1 X0.000 Y205.000 Z-7.500
G1 X-61.000 Y205.000 Z-7.500
G1 X-61.000 Y205.000 Z-9.000
G0 Z5.000
G0 X0.000 Y205.000
G0 Z3.000
G1 X0.000 Y205.000 Z-9.000
G1 X-61.000 Y205.000 Z-9.000
G1 X-61.000 Y205.000 Z-10.500
G0 Z5.000
G0 X0.000 Y205.000
G0 Z3.000
G1 X0.000 Y205.000 Z-10.500
G1 X-61.000 Y205.000 Z-10.500
G1 X-61.000 Y205.000 Z-11.500
G0 Z5.000
G0 X0.000 Y205.000
G0 Z3.000
G1 X0.000 Y205.000 Z-11.500
G1 X-61.000 Y205.000 Z-11.500
G0 Z5.000
G0 Z5.000
G0 Z5.000
G0 X0.000 Y280.000
G0 Z3.000
G1 X0.000 Y280.000 Z-1.500
G1 X-61.000 Y280.000 Z-1.500
G1 X-61.000 Y280.000 Z-3.000
G0 Z5.000
G0 X0.000 Y280.000
G0 Z3.000
G1 X0.000 Y280.000 Z-3.000
G1 X-61.000 Y280.000 Z-3.000
G1 X-61.000 Y280.000 Z-4.500
G0 Z5.000
G0 X0.000 Y280.000
G0 Z3.000
G1 X0.000 Y280.000 Z-4.500
G1 X-61.000 Y280.000 Z-4.500
G1 X-61.000 Y280.000 Z-6.000
G0 Z5.000
G0 X0.000 Y280.000
G0 Z3.000
G1 X0.000 Y280.000 Z-6.000
G1 X-61.000 Y280.000 Z-6.000
G1 X-61.000 Y280.000 Z-7.500
G0 Z5.000
G0 X0.000 Y280.000
G0 Z3.000
G1 X0.000 Y280.000 Z-7.500
G1 X-61.000 Y280.000 Z-7.500
G1 X-61.000 Y280.000 Z-9.000
G0 Z5.000
G0 X0.000 Y280.000
G0 Z3.000
G1 X0.000 Y280.000 Z-9.000
G1 X-61.000 Y280.000 Z-9.000
G1 X-61.000 Y280.000 Z-10.500
G0 Z5.000
G0 X0.000 Y280.000
G0 Z3.000
G1 X0.000 Y280.000 Z-10.500
G1 X-61.000 Y280.000 Z-10.500
G1 X-61.000 Y280.000 Z-11.500
G0 Z5.000
G0 X0.000 Y280.000
G0 Z3.000
G1 X0.000 Y280.000 Z-11.500
G1 X-61.000 Y280.000 Z-11.500
G0 Z5.000
G0 Z5.000
G0 Z5.000
G0 X0.000 Y410.000
G0 Z3.000
G1 X0.000 Y410.000 Z-1.500
G1 X-61.000 Y410.000 Z-1.500
G1 X-61.000 Y410.000 Z-3.000
G0 Z5.000
G0 X0.000 Y410.000
G0 Z3.000
G1 X0.000 Y410.000 Z-3.000
G1 X-61.000 Y410.000 Z-3.000
G1 X-61.000 Y410.000 Z-4.500
G0 Z5.000
G0 X0.000 Y410.000
G0 Z3.000
G1 X0.000 Y410.000 Z-4.500
G1 X-61.000 Y410.000 Z-4.500
G1 X-61.000 Y410.000 Z-6.000
G0 Z5.000
G0 X0.000 Y410.000
G0 Z3.000
G1 X0.000 Y410.000 Z-6.000
G1 X-61.000 Y410.000 Z-6.000
G1 X-61.000 Y410.000 Z-7.500
G0 Z5.000
G0 X0.000 Y410.000
G0 Z3.000
G1 X0.000 Y410.000 Z-7.500
G1 X-61.000 Y410.000 Z-7.500
G1 X-61.000 Y410.000 Z-9.000
G0 Z5.000
G0 X0.000 Y410.000
G0 Z3.000
G1 X0.000 Y410.000 Z-9.000
G1 X-61.000 Y410.000 Z-9.000
G1 X-61.000 Y410.000 Z-10.500
G0 Z5.000
G0 X0.000 Y410.000
G0 Z3.000
G1 X0.000 Y410.000 Z-10.500
G1 X-61.000 Y410.000 Z-10.500
G1 X-61.000 Y410.000 Z-11.500
G0 Z5.000
G0 X0.000 Y410.000
G0 Z3.000
G1 X0.000 Y410.000 Z-11.500
G1 X-61.000 Y410.000 Z-11.500
G0 Z5.000
(finish operation: Engrave)
(begin postamble)
M05
G17 G54 G90 G80 G40
M2
