(Exported by FreeCAD)
(Post Processor: mach3_mach4_post)
(Output Time:2024-03-20 12:59:13.457179)
(begin preamble)
G17 G54 G40 G49 G80 G90
G21
(begin operation: Fixture)
(machine: mach3_4, mm/min)
G54
(finish operation: Fixture)
(begin operation: FREES_5mm001)
(machine: mach3_4, mm/min)
(FREES_5mm001)
M5
M6 T2 
G43 H2
M3 S4
(finish operation: FREES_5mm001)
(begin operation: Profile)
(machine: mach3_4, mm/min)
(Profile)
(Compensated Tool Path. Diameter: 5.0)
G0 Z5.000
G0 X0.000 Y0.000
G0 X-2.500
G0 X-2.500 Z3.000
G1 X-2.500 Y0.000 Z-1.000 F30.000
G3 X0.000 Y-2.500 Z-1.000 I2.500 J0.000 F60.000
G1 X118.500 Y-2.500 Z-1.000 F60.000
G3 X121.000 Y0.000 Z-1.000 I-0.000 J2.500 F60.000
G1 X121.000 Y63.500 Z-1.000 F60.000
G3 X118.500 Y66.000 Z-1.000 I-2.500 J-0.000 F60.000
G1 X0.000 Y66.000 Z-1.000 F60.000
G3 X-2.500 Y63.500 Z-1.000 I0.000 J-2.500 F60.000
G1 X-2.500 Y0.000 Z-1.000 F60.000
G1 X-2.500 Y0.000 Z-2.000 F30.000
G3 X0.000 Y-2.500 Z-2.000 I2.500 J0.000 F60.000
G1 X118.500 Y-2.500 Z-2.000 F60.000
G3 X121.000 Y0.000 Z-2.000 I-0.000 J2.500 F60.000
G1 X121.000 Y63.500 Z-2.000 F60.000
G3 X118.500 Y66.000 Z-2.000 I-2.500 J-0.000 F60.000
G1 X0.000 Y66.000 Z-2.000 F60.000
G3 X-2.500 Y63.500 Z-2.000 I0.000 J-2.500 F60.000
G1 X-2.500 Y0.000 Z-2.000 F60.000
G1 X-2.500 Y0.000 Z-3.000 F30.000
G3 X0.000 Y-2.500 Z-3.000 I2.500 J0.000 F60.000
G1 X118.500 Y-2.500 Z-3.000 F60.000
G3 X121.000 Y0.000 Z-3.000 I-0.000 J2.500 F60.000
G1 X121.000 Y63.500 Z-3.000 F60.000
G3 X118.500 Y66.000 Z-3.000 I-2.500 J-0.000 F60.000
G1 X0.000 Y66.000 Z-3.000 F60.000
G3 X-2.500 Y63.500 Z-3.000 I0.000 J-2.500 F60.000
G1 X-2.500 Y0.000 Z-3.000 F60.000
G1 X-2.500 Y0.000 Z-4.000 F30.000
G3 X0.000 Y-2.500 Z-4.000 I2.500 J0.000 F60.000
G1 X118.500 Y-2.500 Z-4.000 F60.000
G3 X121.000 Y0.000 Z-4.000 I-0.000 J2.500 F60.000
G1 X121.000 Y63.500 Z-4.000 F60.000
G3 X118.500 Y66.000 Z-4.000 I-2.500 J-0.000 F60.000
G1 X0.000 Y66.000 Z-4.000 F60.000
G3 X-2.500 Y63.500 Z-4.000 I0.000 J-2.500 F60.000
G1 X-2.500 Y0.000 Z-4.000 F60.000
G1 X-2.500 Y0.000 Z-5.000 F30.000
G3 X0.000 Y-2.500 Z-5.000 I2.500 J0.000 F60.000
G1 X118.500 Y-2.500 Z-5.000 F60.000
G3 X121.000 Y0.000 Z-5.000 I-0.000 J2.500 F60.000
G1 X121.000 Y63.500 Z-5.000 F60.000
G3 X118.500 Y66.000 Z-5.000 I-2.500 J-0.000 F60.000
G1 X0.000 Y66.000 Z-5.000 F60.000
G3 X-2.500 Y63.500 Z-5.000 I0.000 J-2.500 F60.000
G1 X-2.500 Y0.000 Z-5.000 F60.000
G1 X-2.500 Y0.000 Z-6.000 F30.000
G3 X0.000 Y-2.500 Z-6.000 I2.500 J0.000 F60.000
G1 X118.500 Y-2.500 Z-6.000 F60.000
G3 X121.000 Y0.000 Z-6.000 I-0.000 J2.500 F60.000
G1 X121.000 Y63.500 Z-6.000 F60.000
G3 X118.500 Y66.000 Z-6.000 I-2.500 J-0.000 F60.000
G1 X0.000 Y66.000 Z-6.000 F60.000
G3 X-2.500 Y63.500 Z-6.000 I0.000 J-2.500 F60.000
G1 X-2.500 Y0.000 Z-6.000 F60.000
G1 X-2.500 Y0.000 Z-7.000 F30.000
G3 X0.000 Y-2.500 Z-7.000 I2.500 J0.000 F60.000
G1 X118.500 Y-2.500 Z-7.000 F60.000
G3 X121.000 Y0.000 Z-7.000 I-0.000 J2.500 F60.000
G1 X121.000 Y63.500 Z-7.000 F60.000
G3 X118.500 Y66.000 Z-7.000 I-2.500 J-0.000 F60.000
G1 X0.000 Y66.000 Z-7.000 F60.000
G3 X-2.500 Y63.500 Z-7.000 I0.000 J-2.500 F60.000
G1 X-2.500 Y0.000 Z-7.000 F60.000
G1 X-2.500 Y0.000 Z-8.000 F30.000
G3 X0.000 Y-2.500 Z-8.000 I2.500 J0.000 F60.000
G1 X118.500 Y-2.500 Z-8.000 F60.000
G3 X121.000 Y0.000 Z-8.000 I-0.000 J2.500 F60.000
G1 X121.000 Y63.500 Z-8.000 F60.000
G3 X118.500 Y66.000 Z-8.000 I-2.500 J-0.000 F60.000
G1 X0.000 Y66.000 Z-8.000 F60.000
G3 X-2.500 Y63.500 Z-8.000 I0.000 J-2.500 F60.000
G1 X-2.500 Y0.000 Z-8.000 F60.000
G1 X-2.500 Y0.000 Z-9.000 F30.000
G3 X0.000 Y-2.500 Z-9.000 I2.500 J0.000 F60.000
G1 X118.500 Y-2.500 Z-9.000 F60.000
G3 X121.000 Y0.000 Z-9.000 I-0.000 J2.500 F60.000
G1 X121.000 Y63.500 Z-9.000 F60.000
G3 X118.500 Y66.000 Z-9.000 I-2.500 J-0.000 F60.000
G1 X0.000 Y66.000 Z-9.000 F60.000
G3 X-2.500 Y63.500 Z-9.000 I0.000 J-2.500 F60.000
G1 X-2.500 Y0.000 Z-9.000 F60.000
G1 X-2.500 Y0.000 Z-10.000 F30.000
G3 X0.000 Y-2.500 Z-10.000 I2.500 J0.000 F60.000
G1 X118.500 Y-2.500 Z-10.000 F60.000
G3 X121.000 Y0.000 Z-10.000 I-0.000 J2.500 F60.000
G1 X121.000 Y63.500 Z-10.000 F60.000
G3 X118.500 Y66.000 Z-10.000 I-2.500 J-0.000 F60.000
G1 X0.000 Y66.000 Z-10.000 F60.000
G3 X-2.500 Y63.500 Z-10.000 I0.000 J-2.500 F60.000
G1 X-2.500 Y0.000 Z-10.000 F60.000
G1 X-2.500 Y0.000 Z-11.000 F30.000
G3 X0.000 Y-2.500 Z-11.000 I2.500 J0.000 F60.000
G1 X118.500 Y-2.500 Z-11.000 F60.000
G3 X121.000 Y0.000 Z-11.000 I-0.000 J2.500 F60.000
G1 X121.000 Y63.500 Z-11.000 F60.000
G3 X118.500 Y66.000 Z-11.000 I-2.500 J-0.000 F60.000
G1 X0.000 Y66.000 Z-11.000 F60.000
G3 X-2.500 Y63.500 Z-11.000 I0.000 J-2.500 F60.000
G1 X-2.500 Y0.000 Z-11.000 F60.000
G1 X-2.500 Y0.000 Z-11.500 F30.000
G3 X0.000 Y-2.500 Z-11.500 I2.500 J0.000 F60.000
G1 X118.500 Y-2.500 Z-11.500 F60.000
G3 X121.000 Y0.000 Z-11.500 I-0.000 J2.500 F60.000
G1 X121.000 Y63.500 Z-11.500 F60.000
G3 X118.500 Y66.000 Z-11.500 I-2.500 J-0.000 F60.000
G1 X0.000 Y66.000 Z-11.500 F60.000
G3 X-2.500 Y63.500 Z-11.500 I0.000 J-2.500 F60.000
G1 X-2.500 Y0.000 Z-11.500 F60.000
G0 Z5.000
G0 Z5.000
(finish operation: Profile)
(begin operation: Pocket_Shape)
(machine: mach3_4, mm/min)
(Pocket_Shape)
G0 Z5.000
G0 X0.000 Y0.000
G0 X0.009 Y0.009
G0 X0.009 Y0.009 Z3.000
G1 X0.009 Y0.009 Z-1.000 F30.000
G3 X0.109 Y0.000 Z-1.000 I0.055 J0.055 F60.000
G1 X118.391 Y0.000 Z-1.000 F60.000
G3 X118.500 Y0.109 Z-1.000 I0.045 J0.064 F60.000
G1 X118.500 Y63.391 Z-1.000 F60.000
G3 X118.391 Y63.500 Z-1.000 I-0.064 J0.045 F60.000
G1 X0.109 Y63.500 Z-1.000 F60.000
G3 X0.000 Y63.391 Z-1.000 I-0.045 J-0.064 F60.000
G1 X0.000 Y0.109 Z-1.000 F60.000
G3 X0.009 Y0.009 Z-1.000 I0.064 J-0.045 F60.000
G0 Z5.000
G0 X2.000 Y2.000 Z5.000
G0 X2.000 Y2.000 Z3.000
G1 X2.000 Y2.000 Z-1.000 F30.000
G1 X3.280 Y2.000 Z-1.000 F60.000
G2 X2.000 Y3.280 Z-1.000 I2.172 J3.452 F60.000
G1 X2.000 Y2.000 Z-1.000 F60.000
G0 Z5.000
G0 X3.982 Y3.982 Z5.000
G0 X3.982 Y3.982 Z3.000
G1 X3.982 Y3.982 Z-1.000 F30.000
G3 X5.750 Y3.250 Z-1.000 I1.768 J1.768 F60.000
G1 X112.750 Y3.250 Z-1.000 F60.000
G3 X115.250 Y5.750 Z-1.000 I-0.000 J2.500 F60.000
G1 X115.250 Y57.750 Z-1.000 F60.000
G3 X112.750 Y60.250 Z-1.000 I-2.500 J-0.000 F60.000
G1 X5.750 Y60.250 Z-1.000 F60.000
G3 X3.250 Y57.750 Z-1.000 I0.000 J-2.500 F60.000
G1 X3.250 Y5.750 Z-1.000 F60.000
G3 X3.982 Y3.982 Z-1.000 I2.500 J0.000 F60.000
G0 Z5.000
G0 X2.000 Y60.220 Z5.000
G0 X2.000 Y60.220 Z3.000
G1 X2.000 Y60.220 Z-1.000 F30.000
G2 X3.280 Y61.500 Z-1.000 I3.452 J-2.172 F60.000
G1 X2.000 Y61.500 Z-1.000 F60.000
G1 X2.000 Y60.220 Z-1.000 F60.000
G0 Z5.000
G0 X115.220 Y61.500 Z5.000
G0 X115.220 Y61.500 Z3.000
G1 X115.220 Y61.500 Z-1.000 F30.000
G2 X116.500 Y60.220 Z-1.000 I-2.172 J-3.452 F60.000
G1 X116.500 Y61.500 Z-1.000 F60.000
G1 X115.220 Y61.500 Z-1.000 F60.000
G0 Z5.000
G0 X116.500 Y3.280 Z5.000
G0 X116.500 Y3.280 Z3.000
G1 X116.500 Y3.280 Z-1.000 F30.000
G2 X115.220 Y2.000 Z-1.000 I-3.452 J2.172 F60.000
G1 X116.500 Y2.000 Z-1.000 F60.000
G1 X116.500 Y3.280 Z-1.000 F60.000
G1 X116.500 Y3.280 Z-2.000 F30.000
G2 X115.220 Y2.000 Z-2.000 I-3.452 J2.172 F60.000
G1 X116.500 Y2.000 Z-2.000 F60.000
G1 X116.500 Y3.280 Z-2.000 F60.000
G0 Z5.000
G0 X114.838 Y4.375 Z5.000
G0 X114.838 Y4.375 Z3.000
G1 X114.838 Y4.375 Z-2.000 F30.000
G3 X115.250 Y5.750 Z-2.000 I-2.088 J1.375 F60.000
G1 X115.250 Y57.750 Z-2.000 F60.000
G3 X112.750 Y60.250 Z-2.000 I-2.500 J-0.000 F60.000
G1 X5.750 Y60.250 Z-2.000 F60.000
G3 X3.250 Y57.750 Z-2.000 I0.000 J-2.500 F60.000
G1 X3.250 Y5.750 Z-2.000 F60.000
G3 X5.750 Y3.250 Z-2.000 I2.500 J0.000 F60.000
G1 X112.750 Y3.250 Z-2.000 F60.000
G3 X114.838 Y4.375 Z-2.000 I-0.000 J2.500 F60.000
G0 Z5.000
G0 X118.500 Z5.000
G0 X118.500 Z3.000
G1 X118.500 Y4.375 Z-2.000 F30.000
G1 X118.500 Y63.391 Z-2.000 F60.000
G3 X118.391 Y63.500 Z-2.000 I-0.064 J0.045 F60.000
G1 X0.109 Y63.500 Z-2.000 F60.000
G3 X0.000 Y63.391 Z-2.000 I-0.045 J-0.064 F60.000
G1 X0.000 Y0.109 Z-2.000 F60.000
G3 X0.109 Y0.000 Z-2.000 I0.064 J-0.045 F60.000
G1 X118.391 Y0.000 Z-2.000 F60.000
G3 X118.500 Y0.109 Z-2.000 I0.045 J0.064 F60.000
G1 X118.500 Y4.375 Z-2.000 F60.000
G0 Z5.000
G0 X116.500 Y60.220 Z5.000
G0 X116.500 Y60.220 Z3.000
G1 X116.500 Y60.220 Z-2.000 F30.000
G1 X116.500 Y61.500 Z-2.000 F60.000
G1 X115.220 Y61.500 Z-2.000 F60.000
G2 X116.500 Y60.220 Z-2.000 I-2.172 J-3.452 F60.000
G0 Z5.000
G0 X3.280 Y61.500 Z5.000
G0 X3.280 Y61.500 Z3.000
G1 X3.280 Y61.500 Z-2.000 F30.000
G1 X2.000 Y61.500 Z-2.000 F60.000
G1 X2.000 Y60.220 Z-2.000 F60.000
G2 X3.280 Y61.500 Z-2.000 I3.452 J-2.172 F60.000
G0 Z5.000
G0 X2.000 Y3.280 Z5.000
G0 X2.000 Y3.280 Z3.000
G1 X2.000 Y3.280 Z-2.000 F30.000
G1 X2.000 Y2.000 Z-2.000 F60.000
G1 X3.280 Y2.000 Z-2.000 F60.000
G2 X2.000 Y3.280 Z-2.000 I2.172 J3.452 F60.000
G1 X2.000 Y3.280 Z-3.000 F30.000
G1 X2.000 Y2.000 Z-3.000 F60.000
G1 X3.280 Y2.000 Z-3.000 F60.000
G2 X2.000 Y3.280 Z-3.000 I2.172 J3.452 F60.000
G0 Z5.000
G0 X3.662 Y4.375 Z5.000
G0 X3.662 Y4.375 Z3.000
G1 X3.662 Y4.375 Z-3.000 F30.000
G3 X5.750 Y3.250 Z-3.000 I2.088 J1.375 F60.000
G1 X112.750 Y3.250 Z-3.000 F60.000
G3 X115.250 Y5.750 Z-3.000 I-0.000 J2.500 F60.000
G1 X115.250 Y57.750 Z-3.000 F60.000
G3 X112.750 Y60.250 Z-3.000 I-2.500 J-0.000 F60.000
G1 X5.750 Y60.250 Z-3.000 F60.000
G3 X3.250 Y57.750 Z-3.000 I0.000 J-2.500 F60.000
G1 X3.250 Y5.750 Z-3.000 F60.000
G3 X3.662 Y4.375 Z-3.000 I2.500 J0.000 F60.000
G0 Z5.000
G0 X0.000 Z5.000
G0 X0.000 Z3.000
G1 X0.000 Y4.375 Z-3.000 F30.000
G1 X0.000 Y0.109 Z-3.000 F60.000
G3 X0.109 Y0.000 Z-3.000 I0.064 J-0.045 F60.000
G1 X118.391 Y0.000 Z-3.000 F60.000
G3 X118.500 Y0.109 Z-3.000 I0.045 J0.064 F60.000
G1 X118.500 Y63.391 Z-3.000 F60.000
G3 X118.391 Y63.500 Z-3.000 I-0.064 J0.045 F60.000
G1 X0.109 Y63.500 Z-3.000 F60.000
G3 X0.000 Y63.391 Z-3.000 I-0.045 J-0.064 F60.000
G1 X0.000 Y4.375 Z-3.000 F60.000
G0 Z5.000
G0 X2.000 Y60.220 Z5.000
G0 X2.000 Y60.220 Z3.000
G1 X2.000 Y60.220 Z-3.000 F30.000
G2 X3.280 Y61.500 Z-3.000 I3.452 J-2.172 F60.000
G1 X2.000 Y61.500 Z-3.000 F60.000
G1 X2.000 Y60.220 Z-3.000 F60.000
G0 Z5.000
G0 X115.220 Y61.500 Z5.000
G0 X115.220 Y61.500 Z3.000
G1 X115.220 Y61.500 Z-3.000 F30.000
G2 X116.500 Y60.220 Z-3.000 I-2.172 J-3.452 F60.000
G1 X116.500 Y61.500 Z-3.000 F60.000
G1 X115.220 Y61.500 Z-3.000 F60.000
G0 Z5.000
G0 X116.500 Y3.280 Z5.000
G0 X116.500 Y3.280 Z3.000
G1 X116.500 Y3.280 Z-3.000 F30.000
G2 X115.220 Y2.000 Z-3.000 I-3.452 J2.172 F60.000
G1 X116.500 Y2.000 Z-3.000 F60.000
G1 X116.500 Y3.280 Z-3.000 F60.000
G1 X116.500 Y3.280 Z-4.000 F30.000
G2 X115.220 Y2.000 Z-4.000 I-3.452 J2.172 F60.000
G1 X116.500 Y2.000 Z-4.000 F60.000
G1 X116.500 Y3.280 Z-4.000 F60.000
G0 Z5.000
G0 X114.838 Y4.375 Z5.000
G0 X114.838 Y4.375 Z3.000
G1 X114.838 Y4.375 Z-4.000 F30.000
G3 X115.250 Y5.750 Z-4.000 I-2.088 J1.375 F60.000
G1 X115.250 Y57.750 Z-4.000 F60.000
G3 X112.750 Y60.250 Z-4.000 I-2.500 J-0.000 F60.000
G1 X5.750 Y60.250 Z-4.000 F60.000
G3 X3.250 Y57.750 Z-4.000 I0.000 J-2.500 F60.000
G1 X3.250 Y5.750 Z-4.000 F60.000
G3 X5.750 Y3.250 Z-4.000 I2.500 J0.000 F60.000
G1 X112.750 Y3.250 Z-4.000 F60.000
G3 X114.838 Y4.375 Z-4.000 I-0.000 J2.500 F60.000
G0 Z5.000
G0 X118.500 Z5.000
G0 X118.500 Z3.000
G1 X118.500 Y4.375 Z-4.000 F30.000
G1 X118.500 Y63.391 Z-4.000 F60.000
G3 X118.391 Y63.500 Z-4.000 I-0.064 J0.045 F60.000
G1 X0.109 Y63.500 Z-4.000 F60.000
G3 X0.000 Y63.391 Z-4.000 I-0.045 J-0.064 F60.000
G1 X0.000 Y0.109 Z-4.000 F60.000
G3 X0.109 Y0.000 Z-4.000 I0.064 J-0.045 F60.000
G1 X118.391 Y0.000 Z-4.000 F60.000
G3 X118.500 Y0.109 Z-4.000 I0.045 J0.064 F60.000
G1 X118.500 Y4.375 Z-4.000 F60.000
G0 Z5.000
G0 X116.500 Y60.220 Z5.000
G0 X116.500 Y60.220 Z3.000
G1 X116.500 Y60.220 Z-4.000 F30.000
G1 X116.500 Y61.500 Z-4.000 F60.000
G1 X115.220 Y61.500 Z-4.000 F60.000
G2 X116.500 Y60.220 Z-4.000 I-2.172 J-3.452 F60.000
G0 Z5.000
G0 X3.280 Y61.500 Z5.000
G0 X3.280 Y61.500 Z3.000
G1 X3.280 Y61.500 Z-4.000 F30.000
G1 X2.000 Y61.500 Z-4.000 F60.000
G1 X2.000 Y60.220 Z-4.000 F60.000
G2 X3.280 Y61.500 Z-4.000 I3.452 J-2.172 F60.000
G0 Z5.000
G0 X2.000 Y3.280 Z5.000
G0 X2.000 Y3.280 Z3.000
G1 X2.000 Y3.280 Z-4.000 F30.000
G1 X2.000 Y2.000 Z-4.000 F60.000
G1 X3.280 Y2.000 Z-4.000 F60.000
G2 X2.000 Y3.280 Z-4.000 I2.172 J3.452 F60.000
G1 X2.000 Y3.280 Z-5.000 F30.000
G1 X2.000 Y2.000 Z-5.000 F60.000
G1 X3.280 Y2.000 Z-5.000 F60.000
G2 X2.000 Y3.280 Z-5.000 I2.172 J3.452 F60.000
G0 Z5.000
G0 X3.662 Y4.375 Z5.000
G0 X3.662 Y4.375 Z3.000
G1 X3.662 Y4.375 Z-5.000 F30.000
G3 X5.750 Y3.250 Z-5.000 I2.088 J1.375 F60.000
G1 X112.750 Y3.250 Z-5.000 F60.000
G3 X115.250 Y5.750 Z-5.000 I-0.000 J2.500 F60.000
G1 X115.250 Y57.750 Z-5.000 F60.000
G3 X112.750 Y60.250 Z-5.000 I-2.500 J-0.000 F60.000
G1 X5.750 Y60.250 Z-5.000 F60.000
G3 X3.250 Y57.750 Z-5.000 I0.000 J-2.500 F60.000
G1 X3.250 Y5.750 Z-5.000 F60.000
G3 X3.662 Y4.375 Z-5.000 I2.500 J0.000 F60.000
G0 Z5.000
G0 X0.000 Z5.000
G0 X0.000 Z3.000
G1 X0.000 Y4.375 Z-5.000 F30.000
G1 X0.000 Y0.109 Z-5.000 F60.000
G3 X0.109 Y0.000 Z-5.000 I0.064 J-0.045 F60.000
G1 X118.391 Y0.000 Z-5.000 F60.000
G3 X118.500 Y0.109 Z-5.000 I0.045 J0.064 F60.000
G1 X118.500 Y63.391 Z-5.000 F60.000
G3 X118.391 Y63.500 Z-5.000 I-0.064 J0.045 F60.000
G1 X0.109 Y63.500 Z-5.000 F60.000
G3 X0.000 Y63.391 Z-5.000 I-0.045 J-0.064 F60.000
G1 X0.000 Y4.375 Z-5.000 F60.000
G0 Z5.000
G0 X2.000 Y60.220 Z5.000
G0 X2.000 Y60.220 Z3.000
G1 X2.000 Y60.220 Z-5.000 F30.000
G2 X3.280 Y61.500 Z-5.000 I3.452 J-2.172 F60.000
G1 X2.000 Y61.500 Z-5.000 F60.000
G1 X2.000 Y60.220 Z-5.000 F60.000
G0 Z5.000
G0 X115.220 Y61.500 Z5.000
G0 X115.220 Y61.500 Z3.000
G1 X115.220 Y61.500 Z-5.000 F30.000
G2 X116.500 Y60.220 Z-5.000 I-2.172 J-3.452 F60.000
G1 X116.500 Y61.500 Z-5.000 F60.000
G1 X115.220 Y61.500 Z-5.000 F60.000
G0 Z5.000
G0 X116.500 Y3.280 Z5.000
G0 X116.500 Y3.280 Z3.000
G1 X116.500 Y3.280 Z-5.000 F30.000
G2 X115.220 Y2.000 Z-5.000 I-3.452 J2.172 F60.000
G1 X116.500 Y2.000 Z-5.000 F60.000
G1 X116.500 Y3.280 Z-5.000 F60.000
G1 X116.500 Y3.280 Z-5.250 F30.000
G2 X115.220 Y2.000 Z-5.250 I-3.452 J2.172 F60.000
G1 X116.500 Y2.000 Z-5.250 F60.000
G1 X116.500 Y3.280 Z-5.250 F60.000
G0 Z5.000
G0 X114.838 Y4.375 Z5.000
G0 X114.838 Y4.375 Z3.000
G1 X114.838 Y4.375 Z-5.250 F30.000
G3 X115.250 Y5.750 Z-5.250 I-2.088 J1.375 F60.000
G1 X115.250 Y57.750 Z-5.250 F60.000
G3 X112.750 Y60.250 Z-5.250 I-2.500 J-0.000 F60.000
G1 X5.750 Y60.250 Z-5.250 F60.000
G3 X3.250 Y57.750 Z-5.250 I0.000 J-2.500 F60.000
G1 X3.250 Y5.750 Z-5.250 F60.000
G3 X5.750 Y3.250 Z-5.250 I2.500 J0.000 F60.000
G1 X112.750 Y3.250 Z-5.250 F60.000
G3 X114.838 Y4.375 Z-5.250 I-0.000 J2.500 F60.000
G0 Z5.000
G0 X118.500 Z5.000
G0 X118.500 Z3.000
G1 X118.500 Y4.375 Z-5.250 F30.000
G1 X118.500 Y63.391 Z-5.250 F60.000
G3 X118.391 Y63.500 Z-5.250 I-0.064 J0.045 F60.000
G1 X0.109 Y63.500 Z-5.250 F60.000
G3 X0.000 Y63.391 Z-5.250 I-0.045 J-0.064 F60.000
G1 X0.000 Y0.109 Z-5.250 F60.000
G3 X0.109 Y0.000 Z-5.250 I0.064 J-0.045 F60.000
G1 X118.391 Y0.000 Z-5.250 F60.000
G3 X118.500 Y0.109 Z-5.250 I0.045 J0.064 F60.000
G1 X118.500 Y4.375 Z-5.250 F60.000
G0 Z5.000
G0 X116.500 Y60.220 Z5.000
G0 X116.500 Y60.220 Z3.000
G1 X116.500 Y60.220 Z-5.250 F30.000
G1 X116.500 Y61.500 Z-5.250 F60.000
G1 X115.220 Y61.500 Z-5.250 F60.000
G2 X116.500 Y60.220 Z-5.250 I-2.172 J-3.452 F60.000
G0 Z5.000
G0 X3.280 Y61.500 Z5.000
G0 X3.280 Y61.500 Z3.000
G1 X3.280 Y61.500 Z-5.250 F30.000
G1 X2.000 Y61.500 Z-5.250 F60.000
G1 X2.000 Y60.220 Z-5.250 F60.000
G2 X3.280 Y61.500 Z-5.250 I3.452 J-2.172 F60.000
G0 Z5.000
G0 X2.000 Y3.280 Z5.000
G0 X2.000 Y3.280 Z3.000
G1 X2.000 Y3.280 Z-5.250 F30.000
G1 X2.000 Y2.000 Z-5.250 F60.000
G1 X3.280 Y2.000 Z-5.250 F60.000
G2 X2.000 Y3.280 Z-5.250 I2.172 J3.452 F60.000
G1 X2.000 Y3.280 Z-5.750 F30.000
G1 X2.000 Y2.000 Z-5.750 F60.000
G1 X3.280 Y2.000 Z-5.750 F60.000
G2 X2.000 Y3.280 Z-5.750 I2.172 J3.452 F60.000
G0 Z5.000
G0 X3.662 Y4.375 Z5.000
G0 X3.662 Y4.375 Z3.000
G1 X3.662 Y4.375 Z-5.750 F30.000
G3 X5.750 Y3.250 Z-5.750 I2.088 J1.375 F60.000
G1 X112.750 Y3.250 Z-5.750 F60.000
G3 X115.250 Y5.750 Z-5.750 I-0.000 J2.500 F60.000
G1 X115.250 Y57.750 Z-5.750 F60.000
G3 X112.750 Y60.250 Z-5.750 I-2.500 J-0.000 F60.000
G1 X5.750 Y60.250 Z-5.750 F60.000
G3 X3.250 Y57.750 Z-5.750 I0.000 J-2.500 F60.000
G1 X3.250 Y5.750 Z-5.750 F60.000
G3 X3.662 Y4.375 Z-5.750 I2.500 J0.000 F60.000
G0 Z5.000
G0 X0.000 Z5.000
G0 X0.000 Z3.000
G1 X0.000 Y4.375 Z-5.750 F30.000
G1 X0.000 Y0.109 Z-5.750 F60.000
G3 X0.109 Y0.000 Z-5.750 I0.064 J-0.045 F60.000
G1 X118.391 Y0.000 Z-5.750 F60.000
G3 X118.500 Y0.109 Z-5.750 I0.045 J0.064 F60.000
G1 X118.500 Y63.391 Z-5.750 F60.000
G3 X118.391 Y63.500 Z-5.750 I-0.064 J0.045 F60.000
G1 X0.109 Y63.500 Z-5.750 F60.000
G3 X0.000 Y63.391 Z-5.750 I-0.045 J-0.064 F60.000
G1 X0.000 Y4.375 Z-5.750 F60.000
G0 Z5.000
G0 X2.000 Y60.220 Z5.000
G0 X2.000 Y60.220 Z3.000
G1 X2.000 Y60.220 Z-5.750 F30.000
G2 X3.280 Y61.500 Z-5.750 I3.452 J-2.172 F60.000
G1 X2.000 Y61.500 Z-5.750 F60.000
G1 X2.000 Y60.220 Z-5.750 F60.000
G0 Z5.000
G0 X115.220 Y61.500 Z5.000
G0 X115.220 Y61.500 Z3.000
G1 X115.220 Y61.500 Z-5.750 F30.000
G2 X116.500 Y60.220 Z-5.750 I-2.172 J-3.452 F60.000
G1 X116.500 Y61.500 Z-5.750 F60.000
G1 X115.220 Y61.500 Z-5.750 F60.000
G0 Z5.000
G0 X116.500 Y3.280 Z5.000
G0 X116.500 Y3.280 Z3.000
G1 X116.500 Y3.280 Z-5.750 F30.000
G2 X115.220 Y2.000 Z-5.750 I-3.452 J2.172 F60.000
G1 X116.500 Y2.000 Z-5.750 F60.000
G1 X116.500 Y3.280 Z-5.750 F60.000
G0 Z5.000
G0 Z5.000
(finish operation: Pocket_Shape)
(begin postamble)
M05
G17 G54 G90 G80 G40
M2
