(Exported by FreeCAD)
(Post Processor: mach3_mach4_post)
(Output Time:2024-04-25 20:54:01.059285)
(begin preamble)
G17 G54 G40 G49 G80 G90
G21
(begin operation: Fixture)
(machine: mach3_4, mm/min)
G54
(finish operation: Fixture)
(begin operation: FREES_VLAK_16_mm001)
(machine: mach3_4, mm/min)
(FREES_VLAK_16_mm001)
M5
M6 T2 
G43 H2
(finish operation: FREES_VLAK_16_mm001)
(begin operation: MillFace)
(machine: mach3_4, mm/min)
(MillFace)
G0 Z6.000
G0 X0.000 Y0.000
G0 X60.100 Y-0.100
G0 X60.100 Y-0.100 Z4.000
G1 X60.100 Y-0.100 Z0.500
G1 X60.100 Y11.214 Z0.500
G1 X48.786 Y-0.100 Z0.500
G1 X37.473 Y-0.100 Z0.500
G1 X60.100 Y22.527 Z0.500
G1 X60.100 Y33.841 Z0.500
G1 X26.159 Y-0.100 Z0.500
G1 X14.845 Y-0.100 Z0.500
G1 X60.100 Y45.155 Z0.500
G1 X60.100 Y56.469 Z0.500
G1 X3.531 Y-0.100 Z0.500
G1 X-0.100 Y-0.100 Z0.500
G1 X-0.100 Y7.582 Z0.500
G1 X60.100 Y67.782 Z0.500
G1 X60.100 Y79.096 Z0.500
G1 X-0.100 Y18.896 Z0.500
G1 X-0.100 Y30.210 Z0.500
G1 X60.100 Y90.410 Z0.500
G1 X60.100 Y101.723 Z0.500
G1 X-0.100 Y41.523 Z0.500
G1 X-0.100 Y52.837 Z0.500
G1 X60.100 Y113.037 Z0.500
G1 X60.100 Y124.351 Z0.500
G1 X-0.100 Y64.151 Z0.500
G1 X-0.100 Y75.465 Z0.500
G1 X54.535 Y130.100 Z0.500
G1 X43.222 Y130.100 Z0.500
G1 X-0.100 Y86.778 Z0.500
G1 X-0.100 Y98.092 Z0.500
G1 X31.908 Y130.100 Z0.500
G1 X20.594 Y130.100 Z0.500
G1 X-0.100 Y109.406 Z0.500
G1 X-0.100 Y120.719 Z0.500
G1 X9.281 Y130.100 Z0.500
G1 X-0.100 Y130.100 Z0.500
G1 X-0.100 Y120.719 Z0.500
G0 Z6.000
G0 Z6.000
(finish operation: MillFace)
(begin operation: FREES_5mm001)
(machine: mach3_4, mm/min)
(FREES_5mm001)
M5
M6 T3 
G43 H3
(finish operation: FREES_5mm001)
(begin operation: Profile)
(machine: mach3_4, mm/min)
(Profile)
(Compensated Tool Path. Diameter: 5.0)
G0 Z6.000
G0 X0.000 Y0.000
G0 X-2.500
G0 X-2.500 Z4.000
G1 X-2.500 Y0.000 Z-1.500
G1 X-2.500 Y130.000 Z-1.500
G2 X0.000 Y132.500 Z-1.500 I2.500 J-0.000
G1 X60.000 Y132.500 Z-1.500
G2 X62.500 Y130.000 Z-1.500 I-0.000 J-2.500
G1 X62.500 Y0.000 Z-1.500
G2 X60.000 Y-2.500 Z-1.500 I-2.500 J0.000
G1 X0.000 Y-2.500 Z-1.500
G2 X-2.500 Y0.000 Z-1.500 I0.000 J2.500
G1 X-2.500 Y0.000 Z-4.000
G1 X-2.500 Y130.000 Z-4.000
G2 X0.000 Y132.500 Z-4.000 I2.500 J-0.000
G1 X60.000 Y132.500 Z-4.000
G2 X62.500 Y130.000 Z-4.000 I-0.000 J-2.500
G1 X62.500 Y0.000 Z-4.000
G2 X60.000 Y-2.500 Z-4.000 I-2.500 J0.000
G1 X0.000 Y-2.500 Z-4.000
G2 X-2.500 Y0.000 Z-4.000 I0.000 J2.500
G1 X-2.500 Y0.000 Z-6.500
G1 X-2.500 Y130.000 Z-6.500
G2 X0.000 Y132.500 Z-6.500 I2.500 J-0.000
G1 X60.000 Y132.500 Z-6.500
G2 X62.500 Y130.000 Z-6.500 I-0.000 J-2.500
G1 X62.500 Y0.000 Z-6.500
G2 X60.000 Y-2.500 Z-6.500 I-2.500 J0.000
G1 X0.000 Y-2.500 Z-6.500
G2 X-2.500 Y0.000 Z-6.500 I0.000 J2.500
G1 X-2.500 Y0.000 Z-9.000
G1 X-2.500 Y130.000 Z-9.000
G2 X0.000 Y132.500 Z-9.000 I2.500 J-0.000
G1 X60.000 Y132.500 Z-9.000
G2 X62.500 Y130.000 Z-9.000 I-0.000 J-2.500
G1 X62.500 Y0.000 Z-9.000
G2 X60.000 Y-2.500 Z-9.000 I-2.500 J0.000
G1 X0.000 Y-2.500 Z-9.000
G2 X-2.500 Y0.000 Z-9.000 I0.000 J2.500
G1 X-2.500 Y0.000 Z-11.000
G1 X-2.500 Y130.000 Z-11.000
G2 X0.000 Y132.500 Z-11.000 I2.500 J-0.000
G1 X60.000 Y132.500 Z-11.000
G2 X62.500 Y130.000 Z-11.000 I-0.000 J-2.500
G1 X62.500 Y0.000 Z-11.000
G2 X60.000 Y-2.500 Z-11.000 I-2.500 J0.000
G1 X0.000 Y-2.500 Z-11.000
G2 X-2.500 Y0.000 Z-11.000 I0.000 J2.500
G0 Z6.000
G0 Z6.000
(finish operation: Profile)
(begin operation: FREES_2_mm001)
(machine: mach3_4, mm/min)
(FREES_2_mm001)
M5
M6 T4 
G43 H4
(finish operation: FREES_2_mm001)
(begin operation: Pocket_Shape)
(machine: mach3_4, mm/min)
(Pocket_Shape)
G0 Z6.000
G0 X60.000 Y10.500
G0 Z4.000
G1 X60.000 Y10.500 Z-0.500
G1 X60.000 Y9.500 Z-0.500
G1 X0.000 Y9.500 Z-0.500
G1 X-0.000 Y10.500 Z-0.500
G1 X60.000 Y10.500 Z-0.500
G1 X60.000 Y10.500 Z-2.000
G1 X60.000 Y9.500 Z-2.000
G1 X0.000 Y9.500 Z-2.000
G1 X-0.000 Y10.500 Z-2.000
G1 X60.000 Y10.500 Z-2.000
G1 X60.000 Y10.500 Z-3.500
G1 X60.000 Y9.500 Z-3.500
G1 X0.000 Y9.500 Z-3.500
G1 X-0.000 Y10.500 Z-3.500
G1 X60.000 Y10.500 Z-3.500
G1 X60.000 Y10.500 Z-5.000
G1 X60.000 Y9.500 Z-5.000
G1 X0.000 Y9.500 Z-5.000
G1 X-0.000 Y10.500 Z-5.000
G1 X60.000 Y10.500 Z-5.000
G1 X60.000 Y10.500 Z-5.500
G1 X60.000 Y9.500 Z-5.500
G1 X0.000 Y9.500 Z-5.500
G1 X-0.000 Y10.500 Z-5.500
G1 X60.000 Y10.500 Z-5.500
G0 Z6.000
G0 Z6.000
(finish operation: Pocket_Shape)
(begin operation: Pocket_Shape001)
(machine: mach3_4, mm/min)
(Pocket_Shape001)
G0 Z6.000
G0 X60.000 Y65.500
G0 Z4.000
G1 X60.000 Y65.500 Z-0.500
G1 X60.000 Y64.500 Z-0.500
G1 X0.000 Y64.500 Z-0.500
G1 X-0.000 Y65.500 Z-0.500
G1 X60.000 Y65.500 Z-0.500
G1 X60.000 Y65.500 Z-2.000
G1 X60.000 Y64.500 Z-2.000
G1 X0.000 Y64.500 Z-2.000
G1 X-0.000 Y65.500 Z-2.000
G1 X60.000 Y65.500 Z-2.000
G1 X60.000 Y65.500 Z-3.500
G1 X60.000 Y64.500 Z-3.500
G1 X0.000 Y64.500 Z-3.500
G1 X-0.000 Y65.500 Z-3.500
G1 X60.000 Y65.500 Z-3.500
G1 X60.000 Y65.500 Z-5.000
G1 X60.000 Y64.500 Z-5.000
G1 X0.000 Y64.500 Z-5.000
G1 X-0.000 Y65.500 Z-5.000
G1 X60.000 Y65.500 Z-5.000
G1 X60.000 Y65.500 Z-5.500
G1 X60.000 Y64.500 Z-5.500
G1 X0.000 Y64.500 Z-5.500
G1 X-0.000 Y65.500 Z-5.500
G1 X60.000 Y65.500 Z-5.500
G0 Z6.000
G0 Z6.000
G0 X60.000 Y65.500
G0 Y92.000
G0 Y92.000 Z4.000
G1 X60.000 Y92.000 Z-0.500
G1 X0.000 Y92.000 Z-0.500
G1 X-0.000 Y93.000 Z-0.500
G1 X60.000 Y93.000 Z-0.500
G1 X60.000 Y92.000 Z-0.500
G1 X60.000 Y92.000 Z-2.000
G1 X0.000 Y92.000 Z-2.000
G1 X-0.000 Y93.000 Z-2.000
G1 X60.000 Y93.000 Z-2.000
G1 X60.000 Y92.000 Z-2.000
G1 X60.000 Y92.000 Z-3.500
G1 X0.000 Y92.000 Z-3.500
G1 X-0.000 Y93.000 Z-3.500
G1 X60.000 Y93.000 Z-3.500
G1 X60.000 Y92.000 Z-3.500
G1 X60.000 Y92.000 Z-5.000
G1 X0.000 Y92.000 Z-5.000
G1 X-0.000 Y93.000 Z-5.000
G1 X60.000 Y93.000 Z-5.000
G1 X60.000 Y92.000 Z-5.000
G1 X60.000 Y92.000 Z-5.500
G1 X0.000 Y92.000 Z-5.500
G1 X-0.000 Y93.000 Z-5.500
G1 X60.000 Y93.000 Z-5.500
G1 X60.000 Y92.000 Z-5.500
G0 Z6.000
G0 Z6.000
G0 X60.000 Y92.000
G0 Y119.500
G0 Y119.500 Z4.000
G1 X60.000 Y119.500 Z-0.500
G1 X0.000 Y119.500 Z-0.500
G1 X-0.000 Y120.500 Z-0.500
G1 X60.000 Y120.500 Z-0.500
G1 X60.000 Y119.500 Z-0.500
G1 X60.000 Y119.500 Z-2.000
G1 X0.000 Y119.500 Z-2.000
G1 X-0.000 Y120.500 Z-2.000
G1 X60.000 Y120.500 Z-2.000
G1 X60.000 Y119.500 Z-2.000
G1 X60.000 Y119.500 Z-3.500
G1 X0.000 Y119.500 Z-3.500
G1 X-0.000 Y120.500 Z-3.500
G1 X60.000 Y120.500 Z-3.500
G1 X60.000 Y119.500 Z-3.500
G1 X60.000 Y119.500 Z-5.000
G1 X0.000 Y119.500 Z-5.000
G1 X-0.000 Y120.500 Z-5.000
G1 X60.000 Y120.500 Z-5.000
G1 X60.000 Y119.500 Z-5.000
G1 X60.000 Y119.500 Z-5.500
G1 X0.000 Y119.500 Z-5.500
G1 X-0.000 Y120.500 Z-5.500
G1 X60.000 Y120.500 Z-5.500
G1 X60.000 Y119.500 Z-5.500
G0 Z6.000
G0 Z6.000
(finish operation: Pocket_Shape001)
(begin operation: Pocket_Shape002)
(machine: mach3_4, mm/min)
(Pocket_Shape002)
G0 Z6.000
G0 X60.000 Y38.000
G0 Z4.000
G1 X60.000 Y38.000 Z-0.500
G1 X60.000 Y37.000 Z-0.500
G1 X0.000 Y37.000 Z-0.500
G1 X-0.000 Y38.000 Z-0.500
G1 X0.000 Y38.000 Z-0.500
G1 X60.000 Y38.000 Z-0.500
G1 X60.000 Y38.000 Z-2.000
G1 X60.000 Y37.000 Z-2.000
G1 X0.000 Y37.000 Z-2.000
G1 X-0.000 Y38.000 Z-2.000
G1 X0.000 Y38.000 Z-2.000
G1 X60.000 Y38.000 Z-2.000
G1 X60.000 Y38.000 Z-3.500
G1 X60.000 Y37.000 Z-3.500
G1 X0.000 Y37.000 Z-3.500
G1 X-0.000 Y38.000 Z-3.500
G1 X0.000 Y38.000 Z-3.500
G1 X60.000 Y38.000 Z-3.500
G1 X60.000 Y38.000 Z-5.000
G1 X60.000 Y37.000 Z-5.000
G1 X0.000 Y37.000 Z-5.000
G1 X-0.000 Y38.000 Z-5.000
G1 X0.000 Y38.000 Z-5.000
G1 X60.000 Y38.000 Z-5.000
G1 X60.000 Y38.000 Z-5.500
G1 X60.000 Y37.000 Z-5.500
G1 X0.000 Y37.000 Z-5.500
G1 X-0.000 Y38.000 Z-5.500
G1 X0.000 Y38.000 Z-5.500
G1 X60.000 Y38.000 Z-5.500
G0 Z6.000
G0 Z6.000
(finish operation: Pocket_Shape002)
(begin postamble)
M05
G17 G54 G90 G80 G40
M2
