(Exported by FreeCAD)
(Post Processor: mach3_mach4_post)
(Output Time:2024-04-15 20:15:00.057982)
(begin preamble)
G17 G54 G40 G49 G80 G90
G21
(begin operation: Fixture)
(machine: mach3_4, mm/min)
G54
(finish operation: Fixture)
(begin operation: SLID_SAW003)
(machine: mach3_4, mm/min)
(SLID_SAW003)
M5
M6 T2 
G43 H2
(finish operation: SLID_SAW003)
(begin operation: Engrave)
(machine: mach3_4, mm/min)
(Engrave)
G0 Z5.000
G0 Z5.000
G0 X8.167 Y-32.335
G0 Z3.000
G1 X8.167 Y-32.335 Z-11.000 F60.000
G1 X-32.335 Y8.167 Z-11.000 F60.000
G1 X-32.335 Y8.167 Z-12.000 F60.000
G0 Z5.000
G0 X8.167 Y-32.335
G0 Z3.000
G1 X8.167 Y-32.335 Z-12.000 F60.000
G1 X-32.335 Y8.167 Z-12.000 F60.000
G1 X-32.335 Y8.167 Z-12.500 F60.000
G0 Z5.000
G0 X8.167 Y-32.335
G0 Z3.000
G1 X8.167 Y-32.335 Z-12.500 F60.000
G1 X-32.335 Y8.167 Z-12.500 F60.000
G0 Z5.000
(finish operation: Engrave)
(begin operation: Engrave001)
(machine: mach3_4, mm/min)
(Engrave001)
G0 Z5.000
G0 Z5.000
G0 X121.833 Y-32.335
G0 Z3.000
G1 X121.833 Y-32.335 Z-11.000 F60.000
G1 X162.335 Y8.167 Z-11.000 F60.000
G1 X162.335 Y8.167 Z-12.000 F60.000
G0 Z5.000
G0 X121.833 Y-32.335
G0 Z3.000
G1 X121.833 Y-32.335 Z-12.000 F60.000
G1 X162.335 Y8.167 Z-12.000 F60.000
G1 X162.335 Y8.167 Z-12.500 F60.000
G0 Z5.000
G0 X121.833 Y-32.335
G0 Z3.000
G1 X121.833 Y-32.335 Z-12.500 F60.000
G1 X162.335 Y8.167 Z-12.500 F60.000
G0 Z5.000
(finish operation: Engrave001)
(begin operation: Engrave002)
(machine: mach3_4, mm/min)
(Engrave002)
G0 Z5.000
G0 Z5.000
G0 X121.833 Y107.335
G0 Z3.000
G1 X121.833 Y107.335 Z-12.500 F60.000
G1 X162.335 Y66.833 Z-12.500 F60.000
G0 Z5.000
(finish operation: Engrave002)
(begin operation: Engrave003)
(machine: mach3_4, mm/min)
(Engrave003)
G0 Z5.000
G0 Z5.000
G0 X8.167 Y107.335
G0 Z3.000
G1 X8.167 Y107.335 Z-11.000 F60.000
G1 X-32.335 Y66.833 Z-11.000 F60.000
G1 X-32.335 Y66.833 Z-12.000 F60.000
G0 Z5.000
G0 X8.167 Y107.335
G0 Z3.000
G1 X8.167 Y107.335 Z-12.000 F60.000
G1 X-32.335 Y66.833 Z-12.000 F60.000
G1 X-32.335 Y66.833 Z-12.500 F60.000
G0 Z5.000
G0 X8.167 Y107.335
G0 Z3.000
G1 X8.167 Y107.335 Z-12.500 F60.000
G1 X-32.335 Y66.833 Z-12.500 F60.000
G0 Z5.000
(finish operation: Engrave003)
(begin operation: Engrave004)
(machine: mach3_4, mm/min)
(Engrave004)
G0 Z5.000
G0 Z5.000
G0 X8.167 Y-32.335
G0 Z3.000
G1 X8.167 Y-32.335 Z-31.000 F60.000
G1 X-32.335 Y8.167 Z-31.000 F60.000
G1 X-32.335 Y8.167 Z-32.000 F60.000
G0 Z5.000
G0 X8.167 Y-32.335
G0 Z3.000
G1 X8.167 Y-32.335 Z-32.000 F60.000
G1 X-32.335 Y8.167 Z-32.000 F60.000
G1 X-32.335 Y8.167 Z-32.500 F60.000
G0 Z5.000
G0 X8.167 Y-32.335
G0 Z3.000
G1 X8.167 Y-32.335 Z-32.500 F60.000
G1 X-32.335 Y8.167 Z-32.500 F60.000
G0 Z5.000
(finish operation: Engrave004)
(begin operation: Engrave005)
(machine: mach3_4, mm/min)
(Engrave005)
G0 Z5.000
G0 Z5.000
G0 X121.833 Y-32.335
G0 Z3.000
G1 X121.833 Y-32.335 Z-31.000 F60.000
G1 X162.335 Y8.167 Z-31.000 F60.000
G1 X162.335 Y8.167 Z-32.000 F60.000
G0 Z5.000
G0 X121.833 Y-32.335
G0 Z3.000
G1 X121.833 Y-32.335 Z-32.000 F60.000
G1 X162.335 Y8.167 Z-32.000 F60.000
G1 X162.335 Y8.167 Z-32.500 F60.000
G0 Z5.000
G0 X121.833 Y-32.335
G0 Z3.000
G1 X121.833 Y-32.335 Z-32.500 F60.000
G1 X162.335 Y8.167 Z-32.500 F60.000
G0 Z5.000
(finish operation: Engrave005)
(begin operation: Engrave006)
(machine: mach3_4, mm/min)
(Engrave006)
G0 Z5.000
G0 Z5.000
G0 X121.833 Y107.335
G0 Z3.000
G1 X121.833 Y107.335 Z-31.000 F60.000
G1 X162.335 Y66.833 Z-31.000 F60.000
G1 X162.335 Y66.833 Z-32.000 F60.000
G0 Z5.000
G0 X121.833 Y107.335
G0 Z3.000
G1 X121.833 Y107.335 Z-32.000 F60.000
G1 X162.335 Y66.833 Z-32.000 F60.000
G1 X162.335 Y66.833 Z-32.500 F60.000
G0 Z5.000
G0 X121.833 Y107.335
G0 Z3.000
G1 X121.833 Y107.335 Z-32.500 F60.000
G1 X162.335 Y66.833 Z-32.500 F60.000
G0 Z5.000
(finish operation: Engrave006)
(begin operation: Engrave007)
(machine: mach3_4, mm/min)
(Engrave007)
G0 Z5.000
G0 Z5.000
G0 X8.167 Y107.335
G0 Z3.000
G1 X8.167 Y107.335 Z-31.000 F60.000
G1 X-32.335 Y66.833 Z-31.000 F60.000
G1 X-32.335 Y66.833 Z-32.000 F60.000
G0 Z5.000
G0 X8.167 Y107.335
G0 Z3.000
G1 X8.167 Y107.335 Z-32.000 F60.000
G1 X-32.335 Y66.833 Z-32.000 F60.000
G1 X-32.335 Y66.833 Z-32.500 F60.000
G0 Z5.000
G0 X8.167 Y107.335
G0 Z3.000
G1 X8.167 Y107.335 Z-32.500 F60.000
G1 X-32.335 Y66.833 Z-32.500 F60.000
G0 Z5.000
(finish operation: Engrave007)
(begin operation: Engrave008)
(machine: mach3_4, mm/min)
(Engrave008)
G0 Z5.000
G0 Z5.000
G0 X8.167 Y-32.335
G0 Z3.000
G1 X8.167 Y-32.335 Z-55.000 F60.000
G1 X-32.335 Y8.167 Z-55.000 F60.000
G1 X-32.335 Y8.167 Z-56.000 F60.000
G0 Z5.000
G0 X8.167 Y-32.335
G0 Z3.000
G1 X8.167 Y-32.335 Z-56.000 F60.000
G1 X-32.335 Y8.167 Z-56.000 F60.000
G1 X-32.335 Y8.167 Z-56.500 F60.000
G0 Z5.000
G0 X8.167 Y-32.335
G0 Z3.000
G1 X8.167 Y-32.335 Z-56.500 F60.000
G1 X-32.335 Y8.167 Z-56.500 F60.000
G0 Z5.000
(finish operation: Engrave008)
(begin operation: Engrave009)
(machine: mach3_4, mm/min)
(Engrave009)
G0 Z5.000
G0 Z5.000
G0 X121.833 Y-32.335
G0 Z3.000
G1 X121.833 Y-32.335 Z-55.000 F60.000
G1 X162.335 Y8.167 Z-55.000 F60.000
G1 X162.335 Y8.167 Z-56.000 F60.000
G0 Z5.000
G0 X121.833 Y-32.335
G0 Z3.000
G1 X121.833 Y-32.335 Z-56.000 F60.000
G1 X162.335 Y8.167 Z-56.000 F60.000
G1 X162.335 Y8.167 Z-56.500 F60.000
G0 Z5.000
G0 X121.833 Y-32.335
G0 Z3.000
G1 X121.833 Y-32.335 Z-56.500 F60.000
G1 X162.335 Y8.167 Z-56.500 F60.000
G0 Z5.000
(finish operation: Engrave009)
(begin operation: Engrave010)
(machine: mach3_4, mm/min)
(Engrave010)
G0 Z5.000
G0 Z5.000
G0 X121.833 Y107.335
G0 Z3.000
G1 X121.833 Y107.335 Z-55.000 F60.000
G1 X162.335 Y66.833 Z-55.000 F60.000
G1 X162.335 Y66.833 Z-56.000 F60.000
G0 Z5.000
G0 X121.833 Y107.335
G0 Z3.000
G1 X121.833 Y107.335 Z-56.000 F60.000
G1 X162.335 Y66.833 Z-56.000 F60.000
G1 X162.335 Y66.833 Z-56.500 F60.000
G0 Z5.000
G0 X121.833 Y107.335
G0 Z3.000
G1 X121.833 Y107.335 Z-56.500 F60.000
G1 X162.335 Y66.833 Z-56.500 F60.000
G0 Z5.000
(finish operation: Engrave010)
(begin operation: Engrave011)
(machine: mach3_4, mm/min)
(Engrave011)
G0 Z5.000
G0 Z5.000
G0 X8.167 Y107.335
G0 Z3.000
G1 X8.167 Y107.335 Z-55.000 F60.000
G1 X-32.335 Y66.833 Z-55.000 F60.000
G1 X-32.335 Y66.833 Z-56.000 F60.000
G0 Z5.000
G0 X8.167 Y107.335
G0 Z3.000
G1 X8.167 Y107.335 Z-56.000 F60.000
G1 X-32.335 Y66.833 Z-56.000 F60.000
G1 X-32.335 Y66.833 Z-56.500 F60.000
G0 Z5.000
G0 X8.167 Y107.335
G0 Z3.000
G1 X8.167 Y107.335 Z-56.500 F60.000
G1 X-32.335 Y66.833 Z-56.500 F60.000
G0 Z5.000
(finish operation: Engrave011)
(begin operation: LeadInOutDressup)
(machine: mach3_4, mm/min)
(Profile)
(Compensated Tool Path. Diameter: 46.2)
G0 X-47.350 Y-30.000 Z5.000
G0 Z3.000
G1 Z-21.000 F60.000
G3 X-17.350 Y0.000 Z-21.000 I0.000 J30.000 F60.000
G1 X-17.350 Y0.000 Z-21.000 F60.000
G1 X-17.350 Y75.000 Z-21.000 F60.000
G2 X0.000 Y92.350 Z-21.000 I17.350 J-0.000 F60.000
G1 X130.000 Y92.350 Z-21.000 F60.000
G2 X147.350 Y75.000 Z-21.000 I-0.000 J-17.350 F60.000
G1 X147.350 Y0.000 Z-21.000 F60.000
G2 X130.000 Y-17.350 Z-21.000 I-17.350 J0.000 F60.000
G1 X0.000 Y-17.350 Z-21.000 F60.000
G2 X-17.350 Y0.000 Z-21.000 I0.000 J17.350 F60.000
G3 X-47.350 Y30.000 Z-21.000 I-30.000 J-0.000 F60.000
G0 Z5.000
G0 X-47.350 Y-30.000 Z5.000
G0 Z3.000
G1 Z-22.000 F60.000
G3 X-17.350 Y0.000 Z-22.000 I0.000 J30.000 F60.000
G1 X-17.350 Y0.000 Z-22.000 F60.000
G1 X-17.350 Y75.000 Z-22.000 F60.000
G2 X0.000 Y92.350 Z-22.000 I17.350 J-0.000 F60.000
G1 X130.000 Y92.350 Z-22.000 F60.000
G2 X147.350 Y75.000 Z-22.000 I-0.000 J-17.350 F60.000
G1 X147.350 Y0.000 Z-22.000 F60.000
G2 X130.000 Y-17.350 Z-22.000 I-17.350 J0.000 F60.000
G1 X0.000 Y-17.350 Z-22.000 F60.000
G2 X-17.350 Y0.000 Z-22.000 I0.000 J17.350 F60.000
G3 X-47.350 Y30.000 Z-22.000 I-30.000 J-0.000 F60.000
G0 Z5.000
G0 X-47.350 Y-30.000 Z5.000
G0 Z3.000
G1 Z-22.500 F60.000
G3 X-17.350 Y0.000 Z-22.500 I0.000 J30.000 F60.000
G1 X-17.350 Y0.000 Z-22.500 F60.000
G1 X-17.350 Y75.000 Z-22.500 F60.000
G2 X0.000 Y92.350 Z-22.500 I17.350 J-0.000 F60.000
G1 X130.000 Y92.350 Z-22.500 F60.000
G2 X147.350 Y75.000 Z-22.500 I-0.000 J-17.350 F60.000
G1 X147.350 Y0.000 Z-22.500 F60.000
G2 X130.000 Y-17.350 Z-22.500 I-17.350 J0.000 F60.000
G1 X0.000 Y-17.350 Z-22.500 F60.000
G2 X-17.350 Y0.000 Z-22.500 I0.000 J17.350 F60.000
G3 X-47.350 Y30.000 Z-22.500 I-30.000 J-0.000 F60.000
G0 Z5.000
(finish operation: LeadInOutDressup)
(begin postamble)
M05
G17 G54 G90 G80 G40
M2
